jasonjabbour/PlannerGAN/data/trajectory_data.csv
PairID,Algorithm,Joint1,Joint2,Joint3,Joint4,Joint5,Joint6,Joint7
0,RRT,2.4033e-08,-0.7854,-1.41891e-08,1.3962,1.079e-08,0.6109,-1.24883e-08
0,RRT,-0.00107314,-0.784462,0.000416747,1.39619,-0.00056903,0.610235,-0.000886995
0,RRT,-0.00429262,-0.78165,0.00166703,1.39615,-0.00227615,0.608242,-0.00354794
0,RRT,-0.00965843,-0.776962,0.00375084,1.39609,-0.00512136,0.604919,-0.00798285
0,RRT,-0.0171706,-0.7704,0.00666816,1.396,-0.00910464,0.600267,-0.0141917
0,RRT,-0.026829,-0.761962,0.010419,1.39588,-0.014226,0.594286,-0.0221746
0,RRT,-0.0386338,-0.75165,0.0150034,1.39574,-0.0204855,0.586976,-0.0319314
0,RRT,-0.0525765,-0.73947,0.020418,1.39558,-0.0278786,0.578342,-0.0434552
0,RRT,-0.0674115,-0.72651,0.0261792,1.3954,-0.0357448,0.569155,-0.0557166
0,RRT,-0.0822465,-0.71355,0.0319404,1.39523,-0.043611,0.559968,-0.0679779
0,RRT,-0.0970815,-0.700591,0.0377015,1.39505,-0.0514772,0.550782,-0.0802392
0,RRT,-0.111917,-0.687631,0.0434627,1.39488,-0.0593434,0.541595,-0.0925006
0,RRT,-0.126752,-0.674671,0.0492238,1.3947,-0.0672096,0.532408,-0.104762
0,RRT,-0.141587,-0.661712,0.054985,1.39453,-0.0750759,0.523222,-0.117023
0,RRT,-0.156422,-0.648752,0.0607461,1.39435,-0.0829421,0.514035,-0.129285
0,RRT,-0.171257,-0.635792,0.0665073,1.39418,-0.0908083,0.504849,-0.141546
0,RRT,-0.186092,-0.622833,0.0722685,1.394,-0.0986745,0.495662,-0.153807
0,RRT,-0.200927,-0.609873,0.0780296,1.39383,-0.106541,0.486475,-0.166069
0,RRT,-0.215762,-0.596913,0.0837908,1.39365,-0.114407,0.477289,-0.17833
0,RRT,-0.230597,-0.583954,0.0895519,1.39348,-0.122273,0.468102,-0.190591
0,RRT,-0.245432,-0.570994,0.0953131,1.3933,-0.130139,0.458915,-0.202853
0,RRT,-0.260267,-0.558034,0.101074,1.39312,-0.138006,0.449729,-0.215114
0,RRT,-0.275102,-0.545075,0.106835,1.39295,-0.145872,0.440542,-0.227375
0,RRT,-0.289937,-0.532115,0.112597,1.39277,-0.153738,0.431355,-0.239637
0,RRT,-0.304772,-0.519155,0.118358,1.3926,-0.161604,0.422169,-0.251898
0,RRT,-0.319607,-0.506196,0.124119,1.39242,-0.16947,0.412982,-0.264159
0,RRT,-0.334442,-0.493236,0.12988,1.39225,-0.177337,0.403795,-0.27642
0,RRT,-0.349277,-0.480276,0.135641,1.39207,-0.185203,0.394609,-0.288682
0,RRT,-0.364112,-0.467317,0.141402,1.3919,-0.193069,0.385422,-0.300943
0,RRT,-0.378947,-0.454357,0.147164,1.39172,-0.200935,0.376235,-0.313204
0,RRT,-0.393782,-0.441397,0.152925,1.39155,-0.208802,0.367049,-0.325466
0,RRT,-0.408617,-0.428438,0.158686,1.39137,-0.216668,0.357862,-0.337727
0,RRT,-0.423452,-0.415478,0.164447,1.3912,-0.224534,0.348675,-0.349988
0,RRT,-0.438287,-0.402518,0.170208,1.39102,-0.2324,0.339489,-0.36225
0,RRT,-0.453122,-0.389559,0.175969,1.39085,-0.240266,0.330302,-0.374511
0,RRT,-0.467957,-0.376599,0.18173,1.39067,-0.248133,0.321116,-0.386772
0,RRT,-0.482792,-0.363639,0.187492,1.3905,-0.255999,0.311929,-0.399034
0,RRT,-0.497627,-0.35068,0.193253,1.39032,-0.263865,0.302742,-0.411295
0,RRT,-0.512462,-0.33772,0.199014,1.39015,-0.271731,0.293556,-0.423556
0,RRT,-0.527297,-0.32476,0.204775,1.38997,-0.279598,0.284369,-0.435818
0,RRT,-0.542132,-0.311801,0.210536,1.38979,-0.287464,0.275182,-0.448079
0,RRT,-0.556967,-0.298841,0.216297,1.38962,-0.29533,0.265996,-0.46034
0,RRT,-0.571802,-0.285881,0.222059,1.38944,-0.303196,0.256809,-0.472602
0,RRT,-0.586637,-0.272922,0.22782,1.38927,-0.311062,0.247622,-0.484863
0,RRT,-0.601472,-0.259962,0.233581,1.38909,-0.318929,0.238436,-0.497124
0,RRT,-0.616307,-0.247002,0.239342,1.38892,-0.326795,0.229249,-0.509386
0,RRT,-0.631142,-0.234043,0.245103,1.38874,-0.334661,0.220062,-0.521647
0,RRT,-0.645977,-0.221083,0.250864,1.38857,-0.342527,0.210876,-0.533908
0,RRT,-0.660812,-0.208123,0.256626,1.38839,-0.350393,0.201689,-0.54617
0,RRT,-0.675647,-0.195164,0.262387,1.38822,-0.35826,0.192502,-0.558431
0,RRT,-0.690482,-0.182204,0.268148,1.38804,-0.366126,0.183316,-0.570692
0,RRT,-0.705317,-0.169244,0.273909,1.38787,-0.373992,0.174129,-0.582954
0,RRT,-0.720152,-0.156285,0.27967,1.38769,-0.381858,0.164943,-0.595215
0,RRT,-0.734987,-0.143325,0.285431,1.38752,-0.389725,0.155756,-0.607476
0,RRT,-0.749822,-0.130365,0.291192,1.38734,-0.397591,0.146569,-0.619738
0,RRT,-0.764657,-0.117406,0.296954,1.38717,-0.405457,0.137383,-0.631999
0,RRT,-0.779492,-0.104446,0.302715,1.38699,-0.413323,0.128196,-0.64426
0,RRT,-0.794327,-0.0914864,0.308476,1.38681,-0.421189,0.119009,-0.656522
0,RRT,-0.809162,-0.0785268,0.314237,1.38664,-0.429056,0.109823,-0.668783
0,RRT,-0.823997,-0.0655671,0.319998,1.38646,-0.436922,0.100636,-0.681044
0,RRT,-0.838832,-0.0526074,0.325759,1.38629,-0.444788,0.0914493,-0.693306
0,RRT,-0.853667,-0.0396478,0.331521,1.38611,-0.452654,0.0822627,-0.705567
0,RRT,-0.868502,-0.0266881,0.337282,1.38594,-0.46052,0.073076,-0.717828
0,RRT,-0.883337,-0.0137284,0.343043,1.38576,-0.468387,0.0638894,-0.73009
0,RRT,-0.898172,-0.00076877,0.348804,1.38559,-0.476253,0.0547027,-0.742351
0,RRT,-0.913007,0.0121909,0.354565,1.38541,-0.484119,0.0455161,-0.754612
0,RRT,-0.927842,0.0251506,0.360326,1.38524,-0.491985,0.0363294,-0.766874
0,RRT,-0.942677,0.0381102,0.366088,1.38506,-0.499852,0.0271428,-0.779135
0,RRT,-0.957512,0.0510699,0.371849,1.38489,-0.507718,0.0179561,-0.791396
0,RRT,-0.972347,0.0640296,0.37761,1.38471,-0.515584,0.00876946,-0.803658
0,RRT,-0.987182,0.0769892,0.383371,1.38454,-0.52345,-0.000417189,-0.815919
0,RRT,-1.00202,0.0899489,0.389132,1.38436,-0.531316,-0.00960384,-0.82818
0,RRT,-1.01685,0.102909,0.394893,1.38419,-0.539183,-0.0187905,-0.840442
0,RRT,-1.03169,0.115868,0.400654,1.38401,-0.547049,-0.0279771,-0.852703
0,RRT,-1.04652,0.128828,0.406416,1.38383,-0.554915,-0.0371638,-0.864964
0,RRT,-1.06136,0.141788,0.412177,1.38366,-0.562781,-0.0463504,-0.877226
0,RRT,-1.07619,0.154747,0.417938,1.38348,-0.570648,-0.0555371,-0.889487
0,RRT,-1.09103,0.167707,0.423699,1.38331,-0.578514,-0.0647237,-0.901748
0,RRT,-1.10586,0.180667,0.42946,1.38313,-0.58638,-0.0739104,-0.91401
0,RRT,-1.1207,0.193626,0.435221,1.38296,-0.594246,-0.083097,-0.926271
0,RRT,-1.13553,0.206586,0.440983,1.38278,-0.602112,-0.0922837,-0.938532
0,RRT,-1.15037,0.219546,0.446744,1.38261,-0.609979,-0.10147,-0.950794
0,RRT,-1.1652,0.232505,0.452505,1.38243,-0.617845,-0.110657,-0.963055
0,RRT,-1.18004,0.245465,0.458266,1.38226,-0.625711,-0.119844,-0.975316
0,RRT,-1.19487,0.258425,0.464027,1.38208,-0.633577,-0.12903,-0.987578
0,RRT,-1.20971,0.271384,0.469788,1.38191,-0.641443,-0.138217,-0.999839
0,RRT,-1.22454,0.284344,0.47555,1.38173,-0.64931,-0.147404,-1.0121
0,RRT,-1.23938,0.297304,0.481311,1.38156,-0.657176,-0.15659,-1.02436
0,RRT,-1.25421,0.310263,0.487072,1.38138,-0.665042,-0.165777,-1.03662
0,RRT,-1.26905,0.323223,0.492833,1.38121,-0.672908,-0.174964,-1.04888
0,RRT,-1.28388,0.336183,0.498594,1.38103,-0.680775,-0.18415,-1.06115
0,RRT,-1.29872,0.349142,0.504355,1.38086,-0.688641,-0.193337,-1.07341
0,RRT,-1.31355,0.362102,0.510116,1.38068,-0.696507,-0.202523,-1.08567
0,RRT,-1.32839,0.375062,0.515878,1.3805,-0.704373,-0.21171,-1.09793
0,RRT,-1.34322,0.388021,0.521639,1.38033,-0.712239,-0.220897,-1.11019
0,RRT,-1.35806,0.400981,0.5274,1.38015,-0.720106,-0.230083,-1.12245
0,RRT,-1.37289,0.413941,0.533161,1.37998,-0.727972,-0.23927,-1.13471
0,RRT,-1.38773,0.4269,0.538922,1.3798,-0.735838,-0.248457,-1.14697
0,RRT,-1.40256,0.43986,0.544683,1.37963,-0.743704,-0.257643,-1.15924
0,RRT,-1.4174,0.45282,0.550445,1.37945,-0.751571,-0.26683,-1.1715
0,RRT,-1.43223,0.465779,0.556206,1.37928,-0.759437,-0.276017,-1.18376
0,RRT,-1.44707,0.478739,0.561967,1.3791,-0.767303,-0.285203,-1.19602
0,RRT,-1.4619,0.491699,0.567728,1.37893,-0.775169,-0.29439,-1.20828
0,RRT,-1.47674,0.504658,0.573489,1.37875,-0.783035,-0.303577,-1.22054
0,RRT,-1.49157,0.517618,0.57925,1.37858,-0.790902,-0.312763,-1.2328
0,RRT,-1.50641,0.530578,0.585012,1.3784,-0.798768,-0.32195,-1.24507
0,RRT,-1.52124,0.543537,0.590773,1.37823,-0.806634,-0.331137,-1.25733
0,RRT,-1.53608,0.556497,0.596534,1.37805,-0.8145,-0.340323,-1.26959
0,RRT,-1.55091,0.569457,0.602295,1.37788,-0.822366,-0.34951,-1.28185
0,RRT,-1.56575,0.582416,0.608056,1.3777,-0.830233,-0.358697,-1.29411
0,RRT,-1.58058,0.595376,0.613817,1.37752,-0.838099,-0.367883,-1.30637
0,RRT,-1.59542,0.608336,0.619578,1.37735,-0.845965,-0.37707,-1.31863
0,RRT,-1.61025,0.621295,0.62534,1.37717,-0.853831,-0.386256,-1.33089
0,RRT,-1.62509,0.634255,0.631101,1.377,-0.861698,-0.395443,-1.34316
0,RRT,-1.63992,0.647215,0.636862,1.37682,-0.869564,-0.40463,-1.35542
0,RRT,-1.65476,0.660174,0.642623,1.37665,-0.87743,-0.413816,-1.36768
0,RRT,-1.66959,0.673134,0.648384,1.37647,-0.885296,-0.423003,-1.37994
0,RRT,-1.68443,0.686094,0.654145,1.3763,-0.893162,-0.43219,-1.3922
0,RRT,-1.69926,0.699053,0.659907,1.37612,-0.901029,-0.441376,-1.40446
0,RRT,-1.7141,0.712013,0.665668,1.37595,-0.908895,-0.450563,-1.41672
0,RRT,-1.72893,0.724973,0.671429,1.37577,-0.916761,-0.45975,-1.42899
0,RRT,-1.74377,0.737932,0.67719,1.3756,-0.924627,-0.468936,-1.44125
0,RRT,-1.7586,0.750892,0.682951,1.37542,-0.932494,-0.478123,-1.45351
0,RRT,-1.77344,0.763852,0.688712,1.37525,-0.94036,-0.48731,-1.46577
0,RRT,-1.78827,0.776811,0.694474,1.37507,-0.948226,-0.496496,-1.47803
0,RRT,-1.80311,0.789771,0.700235,1.3749,-0.956092,-0.505683,-1.49029
0,RRT,-1.81794,0.802731,0.705996,1.37472,-0.963958,-0.51487,-1.50255
0,RRT,-1.83278,0.81569,0.711757,1.37454,-0.971825,-0.524056,-1.51481
0,RRT,-1.84761,0.82865,0.717518,1.37437,-0.979691,-0.533243,-1.52708
0,RRT,-1.86245,0.84161,0.723279,1.37419,-0.987557,-0.54243,-1.53934
0,RRT,-1.87728,0.854569,0.72904,1.37402,-0.995423,-0.551616,-1.5516
0,RRT,-1.89212,0.867529,0.734802,1.37384,-1.00329,-0.560803,-1.56386
0,RRT,-1.90695,0.880489,0.740563,1.37367,-1.01116,-0.569989,-1.57612
0,RRT,-1.92179,0.893448,0.746324,1.37349,-1.01902,-0.579176,-1.58838
0,RRT,-1.93662,0.906408,0.752085,1.37332,-1.02689,-0.588363,-1.60064
0,RRT,-1.95146,0.919368,0.757846,1.37314,-1.03475,-0.597549,-1.61291
0,RRT,-1.96629,0.932327,0.763607,1.37297,-1.04262,-0.606736,-1.62517
0,RRT,-1.98113,0.945287,0.769369,1.37279,-1.05049,-0.615923,-1.63743
0,RRT,-1.99596,0.958247,0.77513,1.37262,-1.05835,-0.625109,-1.64969
0,RRT,-2.0108,0.971206,0.780891,1.37244,-1.06622,-0.634296,-1.66195
0,RRT,-2.02563,0.984166,0.786652,1.37227,-1.07409,-0.643483,-1.67421
0,RRT,-2.04047,0.997126,0.792413,1.37209,-1.08195,-0.652669,-1.68647
0,RRT,-2.0553,1.01009,0.798174,1.37192,-1.08982,-0.661856,-1.69873
0,RRT,-2.07014,1.02304,0.803936,1.37174,-1.09768,-0.671043,-1.711
0,RRT,-2.08497,1.036,0.809697,1.37157,-1.10555,-0.680229,-1.72326
0,RRT,-2.09981,1.04896,0.815458,1.37139,-1.11342,-0.689416,-1.73552
0,RRT,-2.11464,1.06192,0.821219,1.37121,-1.12128,-0.698603,-1.74778
0,RRT,-2.12948,1.07488,0.82698,1.37104,-1.12915,-0.707789,-1.76004
0,RRT,-2.14431,1.08784,0.832741,1.37086,-1.13702,-0.716976,-1.7723
0,RRT,-2.15915,1.1008,0.838502,1.37069,-1.14488,-0.726163,-1.78456
0,RRT,-2.17398,1.11376,0.844264,1.37051,-1.15275,-0.735349,-1.79683
0,RRT,-2.18882,1.12672,0.850025,1.37034,-1.16061,-0.744536,-1.80909
0,RRT,-2.20365,1.13968,0.855786,1.37016,-1.16848,-0.753722,-1.82135
0,RRT,-2.21849,1.15264,0.861547,1.36999,-1.17635,-0.762909,-1.83361
0,RRT,-2.23332,1.1656,0.867308,1.36981,-1.18421,-0.772096,-1.84587
0,RRT,-2.24816,1.17856,0.873069,1.36964,-1.19208,-0.781282,-1.85813
0,RRT,-2.26299,1.19152,0.878831,1.36946,-1.19994,-0.790469,-1.87039
0,RRT,-2.27783,1.20448,0.884592,1.36929,-1.20781,-0.799656,-1.88265
0,RRT,-2.29266,1.21744,0.890353,1.36911,-1.21568,-0.808842,-1.89492
0,RRT,-2.3075,1.2304,0.896114,1.36894,-1.22354,-0.818029,-1.90718
0,RRT,-2.32233,1.24336,0.901875,1.36876,-1.23141,-0.827216,-1.91944
0,RRT,-2.33717,1.25632,0.907636,1.36859,-1.23928,-0.836402,-1.9317
0,RRT,-2.352,1.26928,0.913398,1.36841,-1.24714,-0.845589,-1.94396
0,RRT,-2.36684,1.28224,0.919159,1.36823,-1.25501,-0.854776,-1.95622
0,RRT,-2.38167,1.2952,0.92492,1.36806,-1.26287,-0.863962,-1.96848
0,RRT,-2.39651,1.30816,0.930681,1.36788,-1.27074,-0.873149,-1.98075
0,RRT,-2.41134,1.32112,0.936442,1.36771,-1.27861,-0.882336,-1.99301
0,RRT,-2.42618,1.33408,0.942203,1.36753,-1.28647,-0.891522,-2.00527
0,RRT,-2.44101,1.34704,0.947964,1.36736,-1.29434,-0.900709,-2.01753
0,RRT,-2.45585,1.36,0.953726,1.36718,-1.30221,-0.909896,-2.02979
0,RRT,-2.47068,1.37296,0.959487,1.36701,-1.31007,-0.919082,-2.04205
0,RRT,-2.48552,1.38592,0.965248,1.36683,-1.31794,-0.928269,-2.05431
0,RRT,-2.50035,1.39888,0.971009,1.36666,-1.3258,-0.937455,-2.06657
0,RRT,-2.51519,1.41183,0.97677,1.36648,-1.33367,-0.946642,-2.07884
0,RRT,-2.53002,1.42479,0.982531,1.36631,-1.34154,-0.955829,-2.0911
0,RRT,-2.54486,1.43775,0.988293,1.36613,-1.3494,-0.965015,-2.10336
0,RRT,-2.55969,1.45071,0.994054,1.36596,-1.35727,-0.974202,-2.11562
0,RRT,-2.57453,1.46367,0.999815,1.36578,-1.36514,-0.983389,-2.12788
0,RRT,-2.58936,1.47663,1.00558,1.36561,-1.373,-0.992575,-2.14014
0,RRT,-2.6042,1.48959,1.01134,1.36543,-1.38087,-1.00176,-2.1524
0,RRT,-2.61903,1.50255,1.0171,1.36525,-1.38873,-1.01095,-2.16467
0,RRT,-2.63387,1.51551,1.02286,1.36508,-1.3966,-1.02014,-2.17693
0,RRT,-2.6487,1.52847,1.02862,1.3649,-1.40447,-1.02932,-2.18919
0,RRT,-2.66353,1.54143,1.03438,1.36473,-1.41233,-1.03851,-2.20145
0,RRT,-2.67715,1.55332,1.03967,1.36457,-1.41955,-1.04694,-2.2127
0,RRT,-2.68862,1.56335,1.04412,1.36443,-1.42563,-1.05404,-2.22218
0,RRT,-2.69795,1.57149,1.04775,1.36432,-1.43058,-1.05982,-2.22989
0,RRT,-2.70513,1.57776,1.05053,1.36424,-1.43439,-1.06426,-2.23582
0,RRT,-2.71016,1.58216,1.05249,1.36418,-1.43705,-1.06738,-2.23998
0,RRT,-2.71305,1.58468,1.05361,1.36414,-1.43858,-1.06917,-2.24237
0,RRT,-2.71381,1.58535,1.05391,1.36414,-1.43899,-1.06964,-2.243
0,CHOMP,1.22067e-05,-0.785378,9.10355e-05,1.3961,-9.90835e-05,0.610992,8.76832e-05
0,CHOMP,-0.000407932,-0.785401,-0.00111297,1.39454,-0.000493762,0.609618,0.00170237
0,CHOMP,-0.00166835,-0.78547,-0.00472498,1.38985,-0.0016778,0.605497,0.00654642
0,CHOMP,-0.00376904,-0.785585,-0.010745,1.38204,-0.00365119,0.598629,0.0146198
0,CHOMP,-0.00671001,-0.785747,-0.019173,1.3711,-0.00641395,0.589012,0.0259226
0,CHOMP,-0.0102148,-0.785939,-0.0292167,1.35807,-0.00970633,0.577553,0.0393922
0,CHOMP,-0.0137345,-0.786132,-0.0393034,1.34498,-0.0130128,0.566044,0.0529194
0,CHOMP,-0.0172543,-0.786325,-0.0493901,1.33189,-0.0163193,0.554536,0.0664466
0,CHOMP,-0.020774,-0.786518,-0.0594767,1.3188,-0.0196257,0.543027,0.0799737
0,CHOMP,-0.0242938,-0.786711,-0.0695634,1.30571,-0.0229322,0.531519,0.0935009
0,CHOMP,-0.0278135,-0.786904,-0.07965,1.29262,-0.0262386,0.52001,0.107028
0,CHOMP,-0.0313333,-0.787098,-0.0897367,1.27953,-0.0295451,0.508501,0.120555
0,CHOMP,-0.0348531,-0.787291,-0.0998234,1.26644,-0.0328516,0.496993,0.134082
0,CHOMP,-0.0383728,-0.787484,-0.10991,1.25335,-0.036158,0.485484,0.14761
0,CHOMP,-0.0418926,-0.787677,-0.119997,1.24026,-0.0394645,0.473976,0.161137
0,CHOMP,-0.0454123,-0.78787,-0.130083,1.22717,-0.042771,0.462467,0.174664
0,CHOMP,-0.0489321,-0.788063,-0.14017,1.21408,-0.0460774,0.450959,0.188191
0,CHOMP,-0.0524518,-0.788256,-0.150257,1.20099,-0.0493839,0.43945,0.201718
0,CHOMP,-0.0559716,-0.788449,-0.160343,1.1879,-0.0526903,0.427941,0.215245
0,CHOMP,-0.0594913,-0.788642,-0.17043,1.17481,-0.0559968,0.416433,0.228773
0,CHOMP,-0.0630111,-0.788835,-0.180517,1.16172,-0.0593033,0.404924,0.2423
0,CHOMP,-0.0665308,-0.789028,-0.190603,1.14863,-0.0626097,0.393416,0.255827
0,CHOMP,-0.0700506,-0.789221,-0.20069,1.13554,-0.0659162,0.381907,0.269354
0,CHOMP,-0.0735703,-0.789414,-0.210777,1.12245,-0.0692226,0.370399,0.282881
0,CHOMP,-0.0770901,-0.789608,-0.220863,1.10936,-0.0725291,0.35889,0.296409
0,CHOMP,-0.0806098,-0.789801,-0.23095,1.09627,-0.0758356,0.347381,0.309936
0,CHOMP,-0.0841296,-0.789994,-0.241037,1.08318,-0.079142,0.335873,0.323463
0,CHOMP,-0.0876493,-0.790187,-0.251123,1.07009,-0.0824485,0.324364,0.33699
0,CHOMP,-0.0911691,-0.79038,-0.26121,1.057,-0.085755,0.312856,0.350517
0,CHOMP,-0.0946889,-0.790573,-0.271297,1.04391,-0.0890614,0.301347,0.364044
0,CHOMP,-0.0982086,-0.790766,-0.281383,1.03082,-0.0923679,0.289839,0.377572
0,CHOMP,-0.101728,-0.790959,-0.29147,1.01773,-0.0956743,0.27833,0.391099
0,CHOMP,-0.105248,-0.791152,-0.301557,1.00464,-0.0989808,0.266821,0.404626
0,CHOMP,-0.108768,-0.791345,-0.311643,0.991546,-0.102287,0.255313,0.418153
0,CHOMP,-0.112288,-0.791538,-0.32173,0.978456,-0.105594,0.243804,0.43168
0,CHOMP,-0.115807,-0.791731,-0.331816,0.965366,-0.1089,0.232296,0.445207
0,CHOMP,-0.119327,-0.791924,-0.341903,0.952276,-0.112207,0.220787,0.458735
0,CHOMP,-0.122847,-0.792118,-0.35199,0.939186,-0.115513,0.209279,0.472262
0,CHOMP,-0.126367,-0.792311,-0.362076,0.926096,-0.11882,0.19777,0.485789
0,CHOMP,-0.129886,-0.792504,-0.372163,0.913006,-0.122126,0.186262,0.499316
0,CHOMP,-0.133406,-0.792697,-0.38225,0.899916,-0.125432,0.174753,0.512843
0,CHOMP,-0.136926,-0.79289,-0.392336,0.886826,-0.128739,0.163244,0.52637
0,CHOMP,-0.140446,-0.793083,-0.402423,0.873736,-0.132045,0.151736,0.539898
0,CHOMP,-0.143965,-0.793276,-0.41251,0.860646,-0.135352,0.140227,0.553425
0,CHOMP,-0.147485,-0.793469,-0.422596,0.847556,-0.138658,0.128719,0.566952
0,CHOMP,-0.151005,-0.793662,-0.432683,0.834466,-0.141965,0.11721,0.580479
0,CHOMP,-0.154525,-0.793855,-0.44277,0.821376,-0.145271,0.105702,0.594006
0,CHOMP,-0.158044,-0.794048,-0.452856,0.808286,-0.148578,0.0941929,0.607534
0,CHOMP,-0.161564,-0.794241,-0.462943,0.795196,-0.151884,0.0826844,0.621061
0,CHOMP,-0.165084,-0.794434,-0.47303,0.782106,-0.155191,0.0711758,0.634588
0,CHOMP,-0.168604,-0.794628,-0.483116,0.769016,-0.158497,0.0596672,0.648115
0,CHOMP,-0.172123,-0.794821,-0.493203,0.755926,-0.161804,0.0481587,0.661642
0,CHOMP,-0.175643,-0.795014,-0.50329,0.742836,-0.16511,0.0366501,0.675169
0,CHOMP,-0.179163,-0.795207,-0.513376,0.729746,-0.168417,0.0251415,0.688697
0,CHOMP,-0.182683,-0.7954,-0.523463,0.716656,-0.171723,0.0136329,0.702224
0,CHOMP,-0.186202,-0.795593,-0.53355,0.703566,-0.175029,0.00212437,0.715751
0,CHOMP,-0.189722,-0.795786,-0.543636,0.690476,-0.178336,-0.0093842,0.729278
0,CHOMP,-0.193242,-0.795979,-0.553723,0.677386,-0.181642,-0.0208928,0.742805
0,CHOMP,-0.196762,-0.796172,-0.56381,0.664296,-0.184949,-0.0324013,0.756332
0,CHOMP,-0.200281,-0.796365,-0.573896,0.651206,-0.188255,-0.0439099,0.76986
0,CHOMP,-0.203801,-0.796558,-0.583983,0.638116,-0.191562,-0.0554185,0.783387
0,CHOMP,-0.207321,-0.796751,-0.59407,0.625026,-0.194868,-0.066927,0.796914
0,CHOMP,-0.210841,-0.796944,-0.604156,0.611936,-0.198175,-0.0784356,0.810441
0,CHOMP,-0.21436,-0.797138,-0.614243,0.598846,-0.201481,-0.0899442,0.823968
0,CHOMP,-0.21788,-0.797331,-0.62433,0.585756,-0.204788,-0.101453,0.837495
0,CHOMP,-0.2214,-0.797524,-0.634416,0.572666,-0.208094,-0.112961,0.851023
0,CHOMP,-0.22492,-0.797717,-0.644503,0.559576,-0.211401,-0.12447,0.86455
0,CHOMP,-0.228439,-0.79791,-0.65459,0.546486,-0.214707,-0.135978,0.878077
0,CHOMP,-0.231959,-0.798103,-0.664676,0.533396,-0.218013,-0.147487,0.891604
0,CHOMP,-0.235479,-0.798296,-0.674763,0.520306,-0.22132,-0.158996,0.905131
0,CHOMP,-0.238999,-0.798489,-0.68485,0.507216,-0.224626,-0.170504,0.918659
0,CHOMP,-0.242518,-0.798682,-0.694936,0.494126,-0.227933,-0.182013,0.932186
0,CHOMP,-0.246038,-0.798875,-0.705023,0.481036,-0.231239,-0.193521,0.945713
0,CHOMP,-0.249558,-0.799068,-0.71511,0.467946,-0.234546,-0.20503,0.95924
0,CHOMP,-0.253078,-0.799261,-0.725196,0.454856,-0.237852,-0.216538,0.972767
0,CHOMP,-0.256597,-0.799454,-0.735283,0.441766,-0.241159,-0.228047,0.986294
0,CHOMP,-0.260117,-0.799648,-0.745369,0.428676,-0.244465,-0.239556,0.999822
0,CHOMP,-0.263637,-0.799841,-0.755456,0.415586,-0.247772,-0.251064,1.01335
0,CHOMP,-0.267157,-0.800034,-0.765543,0.402496,-0.251078,-0.262573,1.02688
0,CHOMP,-0.270677,-0.800227,-0.775629,0.389406,-0.254385,-0.274081,1.0404
0,CHOMP,-0.274196,-0.80042,-0.785716,0.376316,-0.257691,-0.28559,1.05393
0,CHOMP,-0.277716,-0.800613,-0.795803,0.363226,-0.260997,-0.297098,1.06746
0,CHOMP,-0.281236,-0.800806,-0.805889,0.350136,-0.264304,-0.308607,1.08098
0,CHOMP,-0.284756,-0.800999,-0.815976,0.337046,-0.26761,-0.320116,1.09451
0,CHOMP,-0.288275,-0.801192,-0.826063,0.323956,-0.270917,-0.331624,1.10804
0,CHOMP,-0.291795,-0.801385,-0.836149,0.310866,-0.274223,-0.343133,1.12157
0,CHOMP,-0.295315,-0.801578,-0.846236,0.297776,-0.27753,-0.354641,1.13509
0,CHOMP,-0.298835,-0.801771,-0.856323,0.284686,-0.280836,-0.36615,1.14862
0,CHOMP,-0.302354,-0.801964,-0.866409,0.271596,-0.284143,-0.377658,1.16215
0,CHOMP,-0.305874,-0.802158,-0.876496,0.258506,-0.287449,-0.389167,1.17567
0,CHOMP,-0.309394,-0.802351,-0.886583,0.245416,-0.290756,-0.400676,1.1892
0,CHOMP,-0.312914,-0.802544,-0.896669,0.232326,-0.294062,-0.412184,1.20273
0,CHOMP,-0.316433,-0.802737,-0.906756,0.219236,-0.297369,-0.423693,1.21626
0,CHOMP,-0.319953,-0.80293,-0.916843,0.206146,-0.300675,-0.435201,1.22978
0,CHOMP,-0.323473,-0.803123,-0.926929,0.193056,-0.303981,-0.44671,1.24331
0,CHOMP,-0.326993,-0.803316,-0.937016,0.179966,-0.307288,-0.458218,1.25684
0,CHOMP,-0.330512,-0.803509,-0.947103,0.166876,-0.310594,-0.469727,1.27037
0,CHOMP,-0.334032,-0.803702,-0.957189,0.153786,-0.313901,-0.481236,1.28389
0,CHOMP,-0.337552,-0.803895,-0.967276,0.140696,-0.317207,-0.492744,1.29742
0,CHOMP,-0.341072,-0.804088,-0.977363,0.127606,-0.320514,-0.504253,1.31095
0,CHOMP,-0.344591,-0.804281,-0.987449,0.114516,-0.32382,-0.515761,1.32447
0,CHOMP,-0.348111,-0.804474,-0.997536,0.101426,-0.327127,-0.52727,1.338
0,CHOMP,-0.351631,-0.804668,-1.00762,0.0883361,-0.330433,-0.538778,1.35153
0,CHOMP,-0.355151,-0.804861,-1.01771,0.0752461,-0.33374,-0.550287,1.36506
0,CHOMP,-0.35867,-0.805054,-1.0278,0.0621561,-0.337046,-0.561796,1.37858
0,CHOMP,-0.36219,-0.805247,-1.03788,0.0490661,-0.340353,-0.573304,1.39211
0,CHOMP,-0.36571,-0.80544,-1.04797,0.0359761,-0.343659,-0.584813,1.40564
0,CHOMP,-0.36923,-0.805633,-1.05806,0.0228861,-0.346965,-0.596321,1.41916
0,CHOMP,-0.372749,-0.805826,-1.06814,0.0097961,-0.350272,-0.60783,1.43269
0,CHOMP,-0.376269,-0.806019,-1.07823,-0.0032939,-0.353578,-0.619338,1.44622
0,CHOMP,-0.379789,-0.806212,-1.08832,-0.0163839,-0.356885,-0.630847,1.45975
0,CHOMP,-0.383309,-0.806405,-1.0984,-0.0294739,-0.360191,-0.642356,1.47327
0,CHOMP,-0.386828,-0.806598,-1.10849,-0.0425639,-0.363498,-0.653864,1.4868
0,CHOMP,-0.390348,-0.806791,-1.11858,-0.0556539,-0.366804,-0.665373,1.50033
0,CHOMP,-0.393868,-0.806984,-1.12866,-0.0687439,-0.370111,-0.676881,1.51385
0,CHOMP,-0.397388,-0.807178,-1.13875,-0.0818339,-0.373417,-0.68839,1.52738
0,CHOMP,-0.400907,-0.807371,-1.14884,-0.0949239,-0.376724,-0.699898,1.54091
0,CHOMP,-0.404427,-0.807564,-1.15892,-0.108014,-0.38003,-0.711407,1.55444
0,CHOMP,-0.407947,-0.807757,-1.16901,-0.121104,-0.383337,-0.722916,1.56796
0,CHOMP,-0.411467,-0.80795,-1.1791,-0.134194,-0.386643,-0.734424,1.58149
0,CHOMP,-0.414986,-0.808143,-1.18918,-0.147284,-0.389949,-0.745933,1.59502
0,CHOMP,-0.418506,-0.808336,-1.19927,-0.160374,-0.393256,-0.757441,1.60854
0,CHOMP,-0.422026,-0.808529,-1.20936,-0.173464,-0.396562,-0.76895,1.62207
0,CHOMP,-0.425546,-0.808722,-1.21944,-0.186554,-0.399869,-0.780458,1.6356
0,CHOMP,-0.429065,-0.808915,-1.22953,-0.199644,-0.403175,-0.791967,1.64913
0,CHOMP,-0.432585,-0.809108,-1.23962,-0.212734,-0.406482,-0.803476,1.66265
0,CHOMP,-0.436105,-0.809301,-1.2497,-0.225824,-0.409788,-0.814984,1.67618
0,CHOMP,-0.439625,-0.809494,-1.25979,-0.238914,-0.413095,-0.826493,1.68971
0,CHOMP,-0.443144,-0.809688,-1.26988,-0.252004,-0.416401,-0.838001,1.70323
0,CHOMP,-0.446664,-0.809881,-1.27996,-0.265094,-0.419708,-0.84951,1.71676
0,CHOMP,-0.450184,-0.810074,-1.29005,-0.278184,-0.423014,-0.861018,1.73029
0,CHOMP,-0.453704,-0.810267,-1.30014,-0.291274,-0.426321,-0.872527,1.74382
0,CHOMP,-0.457223,-0.81046,-1.31022,-0.304364,-0.429627,-0.884036,1.75734
0,CHOMP,-0.460743,-0.810653,-1.32031,-0.317454,-0.432933,-0.895544,1.77087
0,CHOMP,-0.464263,-0.810846,-1.3304,-0.330544,-0.43624,-0.907053,1.7844
0,CHOMP,-0.467783,-0.811039,-1.34048,-0.343634,-0.439546,-0.918561,1.79792
0,CHOMP,-0.471302,-0.811232,-1.35057,-0.356724,-0.442853,-0.93007,1.81145
0,CHOMP,-0.474822,-0.811425,-1.36066,-0.369814,-0.446159,-0.941578,1.82498
0,CHOMP,-0.478342,-0.811618,-1.37074,-0.382904,-0.449466,-0.953087,1.83851
0,CHOMP,-0.481862,-0.811811,-1.38083,-0.395994,-0.452772,-0.964596,1.85203
0,CHOMP,-0.485381,-0.812004,-1.39092,-0.409084,-0.456079,-0.976104,1.86556
0,CHOMP,-0.488901,-0.812198,-1.401,-0.422174,-0.459385,-0.987613,1.87909
0,CHOMP,-0.492421,-0.812391,-1.41109,-0.435264,-0.462692,-0.999121,1.89262
0,CHOMP,-0.495941,-0.812584,-1.42118,-0.448354,-0.465998,-1.01063,1.90614
0,CHOMP,-0.49946,-0.812777,-1.43126,-0.461444,-0.469305,-1.02214,1.91967
0,CHOMP,-0.50298,-0.81297,-1.44135,-0.474534,-0.472611,-1.03365,1.9332
0,CHOMP,-0.5065,-0.813163,-1.45144,-0.487624,-0.475917,-1.04516,1.94672
0,CHOMP,-0.51002,-0.813356,-1.46152,-0.500714,-0.479224,-1.05666,1.96025
0,CHOMP,-0.513539,-0.813549,-1.47161,-0.513804,-0.48253,-1.06817,1.97378
0,CHOMP,-0.517059,-0.813742,-1.4817,-0.526894,-0.485837,-1.07968,1.98731
0,CHOMP,-0.520579,-0.813935,-1.49178,-0.539984,-0.489143,-1.09119,2.00083
0,CHOMP,-0.524099,-0.814128,-1.50187,-0.553074,-0.49245,-1.1027,2.01436
0,CHOMP,-0.527618,-0.814321,-1.51196,-0.566164,-0.495756,-1.11421,2.02789
0,CHOMP,-0.531138,-0.814514,-1.52204,-0.579254,-0.499063,-1.12572,2.04141
0,CHOMP,-0.534658,-0.814708,-1.53213,-0.592344,-0.502369,-1.13722,2.05494
0,CHOMP,-0.538178,-0.814901,-1.54222,-0.605434,-0.505676,-1.14873,2.06847
0,CHOMP,-0.541697,-0.815094,-1.5523,-0.618524,-0.508982,-1.16024,2.082
0,CHOMP,-0.545217,-0.815287,-1.56239,-0.631614,-0.512289,-1.17175,2.09552
0,CHOMP,-0.548737,-0.81548,-1.57248,-0.644704,-0.515595,-1.18326,2.10905
0,CHOMP,-0.552257,-0.815673,-1.58256,-0.657794,-0.518901,-1.19477,2.12258
0,CHOMP,-0.555776,-0.815866,-1.59265,-0.670884,-0.522208,-1.20628,2.1361
0,CHOMP,-0.559296,-0.816059,-1.60274,-0.683974,-0.525514,-1.21778,2.14963
0,CHOMP,-0.562816,-0.816252,-1.61282,-0.697064,-0.528821,-1.22929,2.16316
0,CHOMP,-0.566336,-0.816445,-1.62291,-0.710154,-0.532127,-1.2408,2.17669
0,CHOMP,-0.569856,-0.816638,-1.633,-0.723244,-0.535434,-1.25231,2.19021
0,CHOMP,-0.573375,-0.816831,-1.64308,-0.736334,-0.53874,-1.26382,2.20374
0,CHOMP,-0.576895,-0.817024,-1.65317,-0.749424,-0.542047,-1.27533,2.21727
0,CHOMP,-0.580415,-0.817218,-1.66326,-0.762514,-0.545353,-1.28684,2.23079
0,CHOMP,-0.583935,-0.817411,-1.67334,-0.775604,-0.54866,-1.29834,2.24432
0,CHOMP,-0.587454,-0.817604,-1.68343,-0.788694,-0.551966,-1.30985,2.25785
0,CHOMP,-0.590974,-0.817797,-1.69352,-0.801784,-0.555273,-1.32136,2.27138
0,CHOMP,-0.594494,-0.81799,-1.7036,-0.814874,-0.558579,-1.33287,2.2849
0,CHOMP,-0.598014,-0.818183,-1.71369,-0.827964,-0.561885,-1.34438,2.29843
0,CHOMP,-0.601533,-0.818376,-1.72378,-0.841054,-0.565192,-1.35589,2.31196
0,CHOMP,-0.605053,-0.818569,-1.73386,-0.854144,-0.568498,-1.3674,2.32548
0,CHOMP,-0.608573,-0.818762,-1.74395,-0.867234,-0.571805,-1.3789,2.33901
0,CHOMP,-0.612093,-0.818955,-1.75404,-0.880324,-0.575111,-1.39041,2.35254
0,CHOMP,-0.615612,-0.819148,-1.76412,-0.893414,-0.578418,-1.40192,2.36607
0,CHOMP,-0.619132,-0.819341,-1.77421,-0.906504,-0.581724,-1.41343,2.37959
0,CHOMP,-0.622652,-0.819535,-1.7843,-0.919594,-0.585031,-1.42494,2.39312
0,CHOMP,-0.626172,-0.819728,-1.79438,-0.932684,-0.588337,-1.43645,2.40665
0,CHOMP,-0.629691,-0.819921,-1.80447,-0.945774,-0.591644,-1.44796,2.42017
0,CHOMP,-0.633211,-0.820114,-1.81456,-0.958864,-0.59495,-1.45946,2.4337
0,CHOMP,-0.636731,-0.820307,-1.82464,-0.971954,-0.598257,-1.47097,2.44723
0,CHOMP,-0.640251,-0.8205,-1.83473,-0.985044,-0.601563,-1.48248,2.46076
0,CHOMP,-0.64377,-0.820693,-1.84482,-0.998134,-0.604869,-1.49399,2.47428
0,CHOMP,-0.64729,-0.820886,-1.8549,-1.01122,-0.608176,-1.5055,2.48781
0,CHOMP,-0.65081,-0.821079,-1.86499,-1.02431,-0.611482,-1.51701,2.50134
0,CHOMP,-0.65433,-0.821272,-1.87508,-1.0374,-0.614789,-1.52852,2.51487
0,CHOMP,-0.657849,-0.821465,-1.88516,-1.05049,-0.618095,-1.54002,2.52839
0,CHOMP,-0.661369,-0.821658,-1.89525,-1.06358,-0.621402,-1.55153,2.54192
0,CHOMP,-0.664889,-0.821851,-1.90534,-1.07667,-0.624708,-1.56304,2.55545
0,CHOMP,-0.668409,-0.822045,-1.91542,-1.08976,-0.628015,-1.57455,2.56897
0,CHOMP,-0.671928,-0.822238,-1.92551,-1.10285,-0.631321,-1.58606,2.5825
0,CHOMP,-0.675448,-0.822431,-1.9356,-1.11594,-0.634628,-1.59757,2.59603
0,CHOMP,-0.678968,-0.822624,-1.94568,-1.12903,-0.637934,-1.60908,2.60956
0,CHOMP,-0.682488,-0.822817,-1.95577,-1.14212,-0.641241,-1.62058,2.62308
0,CHOMP,-0.686007,-0.82301,-1.96586,-1.15521,-0.644547,-1.63209,2.63661
0,CHOMP,-0.689527,-0.823203,-1.97594,-1.1683,-0.647853,-1.6436,2.65014
0,CHOMP,-0.693047,-0.823396,-1.98603,-1.18139,-0.65116,-1.65511,2.66366
0,CHOMP,-0.696567,-0.823589,-1.99612,-1.19448,-0.654466,-1.66662,2.67719
0,CHOMP,-0.700086,-0.823782,-2.0062,-1.20757,-0.657773,-1.67813,2.69072
0,CHOMP,-0.703606,-0.823975,-2.01629,-1.22066,-0.661079,-1.68964,2.70425
0,CHOMP,-0.707126,-0.824168,-2.02638,-1.23375,-0.664386,-1.70114,2.71777
0,CHOMP,-0.710646,-0.824361,-2.03646,-1.24684,-0.667692,-1.71265,2.7313
0,CHOMP,-0.714165,-0.824555,-2.04655,-1.25993,-0.670999,-1.72416,2.74483
0,CHOMP,-0.717685,-0.824748,-2.05664,-1.27302,-0.674305,-1.73567,2.75835
0,CHOMP,-0.721205,-0.824941,-2.06672,-1.28611,-0.677612,-1.74718,2.77188
0,CHOMP,-0.724725,-0.825134,-2.07681,-1.2992,-0.680918,-1.75869,2.78541
0,CHOMP,-0.728244,-0.825327,-2.0869,-1.31229,-0.684225,-1.7702,2.79894
0,CHOMP,-0.731764,-0.82552,-2.09698,-1.32538,-0.687531,-1.7817,2.81246
0,CHOMP,-0.735284,-0.825713,-2.10707,-1.33847,-0.690837,-1.79321,2.82599
0,CHOMP,-0.738536,-0.825891,-2.11639,-1.35057,-0.693892,-1.80385,2.83849
0,CHOMP,-0.740965,-0.826025,-2.12335,-1.3596,-0.696174,-1.81179,2.84782
0,CHOMP,-0.742553,-0.826112,-2.1279,-1.36551,-0.697666,-1.81698,2.85393
0,CHOMP,-0.743302,-0.826153,-2.13004,-1.36829,-0.698369,-1.81943,2.8568
0,CHOMP,-0.743366,-0.826156,-2.13023,-1.36853,-0.69843,-1.81964,2.85705
1,RRT,-6.66607e-05,-0.785484,-2.87008e-05,1.39615,-3.23003e-06,0.610827,4.80648e-05
1,RRT,0.00160606,-0.784695,-1.21773e-05,1.39459,-1.34559e-05,0.609364,-0.0016421
1,RRT,0.00662422,-0.782326,3.73929e-05,1.3899,-4.41335e-05,0.604975,-0.0067126
1,RRT,0.0149878,-0.778379,0.00012001,1.38209,-9.52629e-05,0.59766,-0.0151634
1,RRT,0.0266969,-0.772853,0.000235674,1.37115,-0.000166844,0.58742,-0.0269946
1,RRT,0.0406506,-0.766268,0.000373511,1.35812,-0.000252148,0.575216,-0.0410939
1,RRT,0.054664,-0.759654,0.000511938,1.34503,-0.000337816,0.56296,-0.0552534
1,RRT,0.0686773,-0.753041,0.000650365,1.33194,-0.000423484,0.550704,-0.0694129
1,RRT,0.0826907,-0.746427,0.000788791,1.31885,-0.000509152,0.538448,-0.0835724
1,RRT,0.0967041,-0.739813,0.000927218,1.30576,-0.000594821,0.526192,-0.097732
1,RRT,0.110717,-0.7332,0.00106564,1.29267,-0.000680489,0.513936,-0.111892
1,RRT,0.124731,-0.726586,0.00120407,1.27958,-0.000766157,0.50168,-0.126051
1,RRT,0.138744,-0.719973,0.0013425,1.26649,-0.000851826,0.489424,-0.140211
1,RRT,0.152758,-0.713359,0.00148092,1.2534,-0.000937494,0.477168,-0.15437
1,RRT,0.166771,-0.706746,0.00161935,1.24031,-0.00102316,0.464912,-0.16853
1,RRT,0.180784,-0.700132,0.00175778,1.22722,-0.00110883,0.452656,-0.182689
1,RRT,0.194798,-0.693519,0.0018962,1.21413,-0.0011945,0.4404,-0.196849
1,RRT,0.208811,-0.686905,0.00203463,1.20104,-0.00128017,0.428144,-0.211008
1,RRT,0.222824,-0.680292,0.00217306,1.18795,-0.00136584,0.415888,-0.225168
1,RRT,0.236838,-0.673678,0.00231148,1.17486,-0.0014515,0.403632,-0.239327
1,RRT,0.250851,-0.667064,0.00244991,1.16177,-0.00153717,0.391376,-0.253487
1,RRT,0.264865,-0.660451,0.00258834,1.14868,-0.00162284,0.37912,-0.267646
1,RRT,0.278878,-0.653837,0.00272676,1.13559,-0.00170851,0.366864,-0.281806
1,RRT,0.292891,-0.647224,0.00286519,1.1225,-0.00179418,0.354608,-0.295965
1,RRT,0.306905,-0.64061,0.00300362,1.10941,-0.00187984,0.342352,-0.310125
1,RRT,0.320918,-0.633997,0.00314204,1.09632,-0.00196551,0.330096,-0.324284
1,RRT,0.334932,-0.627383,0.00328047,1.08323,-0.00205118,0.31784,-0.338444
1,RRT,0.348945,-0.62077,0.0034189,1.07014,-0.00213685,0.305584,-0.352604
1,RRT,0.362958,-0.614156,0.00355732,1.05705,-0.00222252,0.293328,-0.366763
1,RRT,0.376972,-0.607542,0.00369575,1.04396,-0.00230819,0.281072,-0.380923
1,RRT,0.390985,-0.600929,0.00383418,1.03087,-0.00239385,0.268816,-0.395082
1,RRT,0.404998,-0.594315,0.0039726,1.01778,-0.00247952,0.25656,-0.409242
1,RRT,0.419012,-0.587702,0.00411103,1.00469,-0.00256519,0.244304,-0.423401
1,RRT,0.433025,-0.581088,0.00424946,0.991596,-0.00265086,0.232048,-0.437561
1,RRT,0.447039,-0.574475,0.00438788,0.978506,-0.00273653,0.219792,-0.45172
1,RRT,0.461052,-0.567861,0.00452631,0.965416,-0.0028222,0.207536,-0.46588
1,RRT,0.475065,-0.561248,0.00466474,0.952326,-0.00290786,0.19528,-0.480039
1,RRT,0.489079,-0.554634,0.00480316,0.939236,-0.00299353,0.183024,-0.494199
1,RRT,0.503092,-0.548021,0.00494159,0.926146,-0.0030792,0.170768,-0.508358
1,RRT,0.517105,-0.541407,0.00508002,0.913056,-0.00316487,0.158512,-0.522518
1,RRT,0.531119,-0.534793,0.00521844,0.899966,-0.00325054,0.146256,-0.536677
1,RRT,0.545132,-0.52818,0.00535687,0.886876,-0.00333621,0.134,-0.550837
1,RRT,0.559146,-0.521566,0.0054953,0.873786,-0.00342187,0.121744,-0.564997
1,RRT,0.573159,-0.514953,0.00563372,0.860696,-0.00350754,0.109488,-0.579156
1,RRT,0.587172,-0.508339,0.00577215,0.847606,-0.00359321,0.0972322,-0.593316
1,RRT,0.601186,-0.501726,0.00591058,0.834516,-0.00367888,0.0849762,-0.607475
1,RRT,0.615199,-0.495112,0.006049,0.821426,-0.00376455,0.0727202,-0.621635
1,RRT,0.629212,-0.488499,0.00618743,0.808336,-0.00385021,0.0604642,-0.635794
1,RRT,0.643226,-0.481885,0.00632586,0.795246,-0.00393588,0.0482082,-0.649954
1,RRT,0.657239,-0.475271,0.00646428,0.782156,-0.00402155,0.0359522,-0.664113
1,RRT,0.671253,-0.468658,0.00660271,0.769066,-0.00410722,0.0236962,-0.678273
1,RRT,0.685266,-0.462044,0.00674114,0.755976,-0.00419289,0.0114402,-0.692432
1,RRT,0.699279,-0.455431,0.00687956,0.742886,-0.00427856,-0.000815764,-0.706592
1,RRT,0.713293,-0.448817,0.00701799,0.729796,-0.00436422,-0.0130718,-0.720751
1,RRT,0.727306,-0.442204,0.00715642,0.716706,-0.00444989,-0.0253277,-0.734911
1,RRT,0.741319,-0.43559,0.00729484,0.703616,-0.00453556,-0.0375837,-0.74907
1,RRT,0.755333,-0.428977,0.00743327,0.690526,-0.00462123,-0.0498397,-0.76323
1,RRT,0.769346,-0.422363,0.0075717,0.677436,-0.0047069,-0.0620957,-0.77739
1,RRT,0.78336,-0.41575,0.00771012,0.664346,-0.00479257,-0.0743517,-0.791549
1,RRT,0.797373,-0.409136,0.00784855,0.651256,-0.00487823,-0.0866077,-0.805709
1,RRT,0.811386,-0.402522,0.00798698,0.638166,-0.0049639,-0.0988637,-0.819868
1,RRT,0.8254,-0.395909,0.0081254,0.625076,-0.00504957,-0.11112,-0.834028
1,RRT,0.839413,-0.389295,0.00826383,0.611986,-0.00513524,-0.123376,-0.848187
1,RRT,0.853426,-0.382682,0.00840226,0.598896,-0.00522091,-0.135632,-0.862347
1,RRT,0.86744,-0.376068,0.00854068,0.585806,-0.00530658,-0.147888,-0.876506
1,RRT,0.881453,-0.369455,0.00867911,0.572716,-0.00539224,-0.160144,-0.890666
1,RRT,0.895467,-0.362841,0.00881753,0.559626,-0.00547791,-0.1724,-0.904825
1,RRT,0.90948,-0.356228,0.00895596,0.546536,-0.00556358,-0.184656,-0.918985
1,RRT,0.923493,-0.349614,0.00909439,0.533446,-0.00564925,-0.196912,-0.933144
1,RRT,0.937507,-0.343,0.00923281,0.520356,-0.00573492,-0.209168,-0.947304
1,RRT,0.95152,-0.336387,0.00937124,0.507266,-0.00582059,-0.221424,-0.961463
1,RRT,0.965533,-0.329773,0.00950967,0.494176,-0.00590625,-0.23368,-0.975623
1,RRT,0.979547,-0.32316,0.00964809,0.481086,-0.00599192,-0.245936,-0.989782
1,RRT,0.99356,-0.316546,0.00978652,0.467996,-0.00607759,-0.258192,-1.00394
1,RRT,1.00757,-0.309933,0.00992495,0.454906,-0.00616326,-0.270448,-1.0181
1,RRT,1.02159,-0.303319,0.0100634,0.441816,-0.00624893,-0.282704,-1.03226
1,RRT,1.0356,-0.296706,0.0102018,0.428726,-0.00633459,-0.29496,-1.04642
1,RRT,1.04961,-0.290092,0.0103402,0.415636,-0.00642026,-0.307216,-1.06058
1,RRT,1.06363,-0.283479,0.0104787,0.402546,-0.00650593,-0.319472,-1.07474
1,RRT,1.07764,-0.276865,0.0106171,0.389456,-0.0065916,-0.331728,-1.0889
1,RRT,1.09165,-0.270251,0.0107555,0.376366,-0.00667727,-0.343984,-1.10306
1,RRT,1.10567,-0.263638,0.0108939,0.363276,-0.00676294,-0.35624,-1.11722
1,RRT,1.11968,-0.257024,0.0110324,0.350186,-0.0068486,-0.368496,-1.13138
1,RRT,1.13369,-0.250411,0.0111708,0.337096,-0.00693427,-0.380751,-1.14554
1,RRT,1.14771,-0.243797,0.0113092,0.324006,-0.00701994,-0.393007,-1.1597
1,RRT,1.16172,-0.237184,0.0114476,0.310916,-0.00710561,-0.405263,-1.17386
1,RRT,1.17573,-0.23057,0.0115861,0.297826,-0.00719128,-0.417519,-1.18802
1,RRT,1.18975,-0.223957,0.0117245,0.284736,-0.00727695,-0.429775,-1.20218
1,RRT,1.20376,-0.217343,0.0118629,0.271646,-0.00736261,-0.442031,-1.21633
1,RRT,1.21777,-0.210729,0.0120013,0.258556,-0.00744828,-0.454287,-1.23049
1,RRT,1.23179,-0.204116,0.0121398,0.245466,-0.00753395,-0.466543,-1.24465
1,RRT,1.2458,-0.197502,0.0122782,0.232376,-0.00761962,-0.478799,-1.25881
1,RRT,1.25981,-0.190889,0.0124166,0.219286,-0.00770529,-0.491055,-1.27297
1,RRT,1.27383,-0.184275,0.0125551,0.206196,-0.00779096,-0.503311,-1.28713
1,RRT,1.28784,-0.177662,0.0126935,0.193106,-0.00787662,-0.515567,-1.30129
1,RRT,1.30185,-0.171048,0.0128319,0.180016,-0.00796229,-0.527823,-1.31545
1,RRT,1.31587,-0.164435,0.0129703,0.166926,-0.00804796,-0.540079,-1.32961
1,RRT,1.32988,-0.157821,0.0131088,0.153836,-0.00813363,-0.552335,-1.34377
1,RRT,1.34389,-0.151208,0.0132472,0.140746,-0.0082193,-0.564591,-1.35793
1,RRT,1.35791,-0.144594,0.0133856,0.127656,-0.00830496,-0.576847,-1.37209
1,RRT,1.37192,-0.13798,0.013524,0.114566,-0.00839063,-0.589103,-1.38625
1,RRT,1.38593,-0.131367,0.0136625,0.101476,-0.0084763,-0.601359,-1.40041
1,RRT,1.39995,-0.124753,0.0138009,0.0883857,-0.00856197,-0.613615,-1.41457
1,RRT,1.41396,-0.11814,0.0139393,0.0752957,-0.00864764,-0.625871,-1.42873
1,RRT,1.42797,-0.111526,0.0140777,0.0622057,-0.00873331,-0.638127,-1.44289
1,RRT,1.44199,-0.104913,0.0142162,0.0491157,-0.00881897,-0.650383,-1.45705
1,RRT,1.456,-0.0982991,0.0143546,0.0360257,-0.00890464,-0.662639,-1.47121
1,RRT,1.47002,-0.0916856,0.014493,0.0229357,-0.00899031,-0.674895,-1.48537
1,RRT,1.48403,-0.085072,0.0146315,0.00984568,-0.00907598,-0.687151,-1.49953
1,RRT,1.49804,-0.0784585,0.0147699,-0.00324432,-0.00916165,-0.699407,-1.51369
1,RRT,1.51206,-0.0718449,0.0149083,-0.0163343,-0.00924732,-0.711663,-1.52784
1,RRT,1.52607,-0.0652314,0.0150467,-0.0294243,-0.00933298,-0.723919,-1.542
1,RRT,1.54008,-0.0586178,0.0151852,-0.0425143,-0.00941865,-0.736175,-1.55616
1,RRT,1.5541,-0.0520043,0.0153236,-0.0556043,-0.00950432,-0.748431,-1.57032
1,RRT,1.56811,-0.0453907,0.015462,-0.0686943,-0.00958999,-0.760687,-1.58448
1,RRT,1.58212,-0.0387772,0.0156004,-0.0817843,-0.00967566,-0.772943,-1.59864
1,RRT,1.59614,-0.0321636,0.0157389,-0.0948743,-0.00976133,-0.785199,-1.6128
1,RRT,1.61015,-0.0255501,0.0158773,-0.107964,-0.00984699,-0.797455,-1.62696
1,RRT,1.62416,-0.0189365,0.0160157,-0.121054,-0.00993266,-0.809711,-1.64112
1,RRT,1.63818,-0.012323,0.0161541,-0.134144,-0.0100183,-0.821967,-1.65528
1,RRT,1.65219,-0.00570945,0.0162926,-0.147234,-0.010104,-0.834223,-1.66944
1,RRT,1.6662,0.000904103,0.016431,-0.160324,-0.0101897,-0.846479,-1.6836
1,RRT,1.68022,0.00751765,0.0165694,-0.173414,-0.0102753,-0.858735,-1.69776
1,RRT,1.69423,0.0141312,0.0167079,-0.186504,-0.010361,-0.870991,-1.71192
1,RRT,1.70824,0.0207448,0.0168463,-0.199594,-0.0104467,-0.883247,-1.72608
1,RRT,1.72226,0.0273583,0.0169847,-0.212684,-0.0105323,-0.895503,-1.74024
1,RRT,1.73627,0.0339719,0.0171231,-0.225774,-0.010618,-0.907759,-1.7544
1,RRT,1.75028,0.0405854,0.0172616,-0.238864,-0.0107037,-0.920015,-1.76856
1,RRT,1.7643,0.047199,0.0174,-0.251954,-0.0107893,-0.932271,-1.78272
1,RRT,1.77831,0.0538125,0.0175384,-0.265044,-0.010875,-0.944527,-1.79688
1,RRT,1.79232,0.0604261,0.0176768,-0.278134,-0.0109607,-0.956783,-1.81104
1,RRT,1.80634,0.0670396,0.0178153,-0.291224,-0.0110463,-0.969039,-1.82519
1,RRT,1.82035,0.0736532,0.0179537,-0.304314,-0.011132,-0.981295,-1.83935
1,RRT,1.83436,0.0802667,0.0180921,-0.317404,-0.0112177,-0.993551,-1.85351
1,RRT,1.84838,0.0868803,0.0182305,-0.330494,-0.0113034,-1.00581,-1.86767
1,RRT,1.86239,0.0934938,0.018369,-0.343584,-0.011389,-1.01806,-1.88183
1,RRT,1.8764,0.100107,0.0185074,-0.356674,-0.0114747,-1.03032,-1.89599
1,RRT,1.89042,0.106721,0.0186458,-0.369764,-0.0115604,-1.04258,-1.91015
1,RRT,1.90443,0.113334,0.0187843,-0.382854,-0.011646,-1.05483,-1.92431
1,RRT,1.91844,0.119948,0.0189227,-0.395944,-0.0117317,-1.06709,-1.93847
1,RRT,1.93246,0.126562,0.0190611,-0.409034,-0.0118174,-1.07934,-1.95263
1,RRT,1.94647,0.133175,0.0191995,-0.422124,-0.011903,-1.0916,-1.96679
1,RRT,1.96048,0.139789,0.019338,-0.435214,-0.0119887,-1.10385,-1.98095
1,RRT,1.9745,0.146402,0.0194764,-0.448304,-0.0120744,-1.11611,-1.99511
1,RRT,1.98851,0.153016,0.0196148,-0.461394,-0.01216,-1.12837,-2.00927
1,RRT,2.00252,0.159629,0.0197532,-0.474484,-0.0122457,-1.14062,-2.02343
1,RRT,2.01654,0.166243,0.0198917,-0.487574,-0.0123314,-1.15288,-2.03759
1,RRT,2.03055,0.172856,0.0200301,-0.500664,-0.012417,-1.16513,-2.05175
1,RRT,2.04456,0.17947,0.0201685,-0.513754,-0.0125027,-1.17739,-2.06591
1,RRT,2.05858,0.186084,0.0203069,-0.526844,-0.0125884,-1.18965,-2.08007
1,RRT,2.07259,0.192697,0.0204454,-0.539934,-0.012674,-1.2019,-2.09423
1,RRT,2.0866,0.199311,0.0205838,-0.553024,-0.0127597,-1.21416,-2.10839
1,RRT,2.10062,0.205924,0.0207222,-0.566114,-0.0128454,-1.22641,-2.12255
1,RRT,2.11463,0.212538,0.0208607,-0.579204,-0.0129311,-1.23867,-2.1367
1,RRT,2.12864,0.219151,0.0209991,-0.592294,-0.0130167,-1.25093,-2.15086
1,RRT,2.14266,0.225765,0.0211375,-0.605384,-0.0131024,-1.26318,-2.16502
1,RRT,2.15667,0.232378,0.0212759,-0.618474,-0.0131881,-1.27544,-2.17918
1,RRT,2.17068,0.238992,0.0214144,-0.631564,-0.0132737,-1.28769,-2.19334
1,RRT,2.1847,0.245605,0.0215528,-0.644654,-0.0133594,-1.29995,-2.2075
1,RRT,2.19871,0.252219,0.0216912,-0.657744,-0.0134451,-1.31221,-2.22166
1,RRT,2.21272,0.258833,0.0218296,-0.670834,-0.0135307,-1.32446,-2.23582
1,RRT,2.22674,0.265446,0.0219681,-0.683924,-0.0136164,-1.33672,-2.24998
1,RRT,2.24075,0.27206,0.0221065,-0.697014,-0.0137021,-1.34897,-2.26414
1,RRT,2.25476,0.278673,0.0222449,-0.710104,-0.0137877,-1.36123,-2.2783
1,RRT,2.26878,0.285287,0.0223833,-0.723194,-0.0138734,-1.37349,-2.29246
1,RRT,2.28279,0.2919,0.0225218,-0.736284,-0.0139591,-1.38574,-2.30662
1,RRT,2.2968,0.298514,0.0226602,-0.749374,-0.0140447,-1.398,-2.32078
1,RRT,2.31082,0.305127,0.0227986,-0.762464,-0.0141304,-1.41025,-2.33494
1,RRT,2.32483,0.311741,0.022937,-0.775554,-0.0142161,-1.42251,-2.3491
1,RRT,2.33884,0.318354,0.0230755,-0.788644,-0.0143017,-1.43477,-2.36326
1,RRT,2.35286,0.324968,0.0232139,-0.801734,-0.0143874,-1.44702,-2.37742
1,RRT,2.36687,0.331582,0.0233523,-0.814824,-0.0144731,-1.45928,-2.39158
1,RRT,2.38088,0.338195,0.0234908,-0.827914,-0.0145587,-1.47153,-2.40574
1,RRT,2.3949,0.344809,0.0236292,-0.841004,-0.0146444,-1.48379,-2.4199
1,RRT,2.40891,0.351422,0.0237676,-0.854094,-0.0147301,-1.49605,-2.43405
1,RRT,2.42292,0.358036,0.023906,-0.867184,-0.0148158,-1.5083,-2.44821
1,RRT,2.43694,0.364649,0.0240445,-0.880274,-0.0149014,-1.52056,-2.46237
1,RRT,2.45095,0.371263,0.0241829,-0.893364,-0.0149871,-1.53281,-2.47653
1,RRT,2.46496,0.377876,0.0243213,-0.906454,-0.0150728,-1.54507,-2.49069
1,RRT,2.47898,0.38449,0.0244597,-0.919544,-0.0151584,-1.55733,-2.50485
1,RRT,2.49299,0.391104,0.0245982,-0.932634,-0.0152441,-1.56958,-2.51901
1,RRT,2.507,0.397717,0.0247366,-0.945724,-0.0153298,-1.58184,-2.53317
1,RRT,2.52102,0.404331,0.024875,-0.958814,-0.0154154,-1.59409,-2.54733
1,RRT,2.53503,0.410944,0.0250134,-0.971904,-0.0155011,-1.60635,-2.56149
1,RRT,2.54905,0.417558,0.0251519,-0.984994,-0.0155868,-1.61861,-2.57565
1,RRT,2.56306,0.424171,0.0252903,-0.998084,-0.0156724,-1.63086,-2.58981
1,RRT,2.57707,0.430785,0.0254287,-1.01117,-0.0157581,-1.64312,-2.60397
1,RRT,2.59109,0.437398,0.0255672,-1.02426,-0.0158438,-1.65537,-2.61813
1,RRT,2.6051,0.444012,0.0257056,-1.03735,-0.0159294,-1.66763,-2.63229
1,RRT,2.61911,0.450625,0.025844,-1.05044,-0.0160151,-1.67989,-2.64645
1,RRT,2.63313,0.457239,0.0259824,-1.06353,-0.0161008,-1.69214,-2.66061
1,RRT,2.64714,0.463853,0.0261209,-1.07662,-0.0161864,-1.7044,-2.67477
1,RRT,2.66115,0.470466,0.0262593,-1.08971,-0.0162721,-1.71665,-2.68893
1,RRT,2.67517,0.47708,0.0263977,-1.1028,-0.0163578,-1.72891,-2.70309
1,RRT,2.68918,0.483693,0.0265361,-1.11589,-0.0164435,-1.74117,-2.71725
1,RRT,2.70319,0.490307,0.0266746,-1.12898,-0.0165291,-1.75342,-2.7314
1,RRT,2.71721,0.49692,0.026813,-1.14207,-0.0166148,-1.76568,-2.74556
1,RRT,2.73122,0.503534,0.0269514,-1.15516,-0.0167005,-1.77793,-2.75972
1,RRT,2.74523,0.510147,0.0270898,-1.16825,-0.0167861,-1.79019,-2.77388
1,RRT,2.75925,0.516761,0.0272283,-1.18134,-0.0168718,-1.80245,-2.78804
1,RRT,2.77326,0.523375,0.0273667,-1.19443,-0.0169575,-1.8147,-2.8022
1,RRT,2.78727,0.529988,0.0275051,-1.20752,-0.0170431,-1.82696,-2.81636
1,RRT,2.80129,0.536602,0.0276436,-1.22061,-0.0171288,-1.83921,-2.83052
1,RRT,2.8153,0.543215,0.027782,-1.2337,-0.0172145,-1.85147,-2.84468
1,RRT,2.82931,0.549829,0.0279204,-1.24679,-0.0173001,-1.86373,-2.85884
1,RRT,2.84333,0.556442,0.0280588,-1.25988,-0.0173858,-1.87598,-2.873
1,RRT,2.85734,0.563056,0.0281973,-1.27297,-0.0174715,-1.88824,-2.88716
1,RRT,2.87135,0.569669,0.0283357,-1.28606,-0.0175571,-1.90049,-2.90132
1,RRT,2.88537,0.576283,0.0284741,-1.29915,-0.0176428,-1.91275,-2.91548
1,RRT,2.89938,0.582896,0.0286125,-1.31224,-0.0177285,-1.92501,-2.92964
1,RRT,2.91339,0.58951,0.028751,-1.32533,-0.0178141,-1.93726,-2.9438
1,RRT,2.92741,0.596124,0.0288894,-1.33842,-0.0178998,-1.94952,-2.95796
1,RRT,2.93995,0.602044,0.0290133,-1.35014,-0.0179765,-1.96049,-2.97063
1,RRT,2.94916,0.606389,0.0291042,-1.35874,-0.0180328,-1.96854,-2.97993
1,RRT,2.95502,0.609154,0.0291621,-1.36422,-0.0180686,-1.97367,-2.98586
1,RRT,2.95753,0.610341,0.029187,-1.36656,-0.018084,-1.97587,-2.9884
1,RRT,2.95764,0.610391,0.029188,-1.36666,-0.0180846,-1.97596,-2.9885
1,CHOMP,5.70574e-05,-0.785379,-4.57223e-05,1.39621,7.02731e-05,0.61084,1.25174e-05
1,CHOMP,0.00106493,-0.784442,0.000731395,1.39499,-0.000539293,0.609984,0.00114707
1,CHOMP,0.00408856,-0.781629,0.00306275,1.39135,-0.00236799,0.607414,0.00455072
1,CHOMP,0.00912794,-0.776942,0.00694833,1.38528,-0.00541582,0.603131,0.0102235
1,CHOMP,0.0161831,-0.770379,0.0123882,1.37678,-0.00968278,0.597134,0.0181653
1,CHOMP,0.025254,-0.761942,0.0193822,1.36585,-0.0151689,0.589424,0.0283763
1,CHOMP,0.0359645,-0.751979,0.0276405,1.35294,-0.0216466,0.580321,0.040433
1,CHOMP,0.0468277,-0.741875,0.0360165,1.33985,-0.0282167,0.571088,0.0526615
1,CHOMP,0.0576909,-0.73177,0.0443925,1.32676,-0.0347868,0.561854,0.06489
1,CHOMP,0.0685541,-0.721665,0.0527685,1.31367,-0.0413569,0.552621,0.0771186
1,CHOMP,0.0794173,-0.711561,0.0611445,1.30058,-0.047927,0.543388,0.0893471
1,CHOMP,0.0902805,-0.701456,0.0695205,1.28749,-0.0544971,0.534155,0.101576
1,CHOMP,0.101144,-0.691351,0.0778965,1.2744,-0.0610672,0.524922,0.113804
1,CHOMP,0.112007,-0.681247,0.0862725,1.26131,-0.0676373,0.515689,0.126033
1,CHOMP,0.12287,-0.671142,0.0946486,1.24822,-0.0742074,0.506455,0.138261
1,CHOMP,0.133733,-0.661037,0.103025,1.23513,-0.0807774,0.497222,0.15049
1,CHOMP,0.144597,-0.650933,0.111401,1.22204,-0.0873475,0.487989,0.162718
1,CHOMP,0.15546,-0.640828,0.119777,1.20895,-0.0939176,0.478756,0.174947
1,CHOMP,0.166323,-0.630723,0.128153,1.19586,-0.100488,0.469523,0.187175
1,CHOMP,0.177186,-0.620619,0.136529,1.18277,-0.107058,0.46029,0.199404
1,CHOMP,0.188049,-0.610514,0.144905,1.16968,-0.113628,0.451056,0.211632
1,CHOMP,0.198913,-0.600409,0.153281,1.15659,-0.120198,0.441823,0.223861
1,CHOMP,0.209776,-0.590305,0.161657,1.1435,-0.126768,0.43259,0.236089
1,CHOMP,0.220639,-0.5802,0.170033,1.13041,-0.133338,0.423357,0.248318
1,CHOMP,0.231502,-0.570095,0.178409,1.11732,-0.139908,0.414124,0.260547
1,CHOMP,0.242365,-0.559991,0.186785,1.10423,-0.146478,0.40489,0.272775
1,CHOMP,0.253229,-0.549886,0.195161,1.09114,-0.153048,0.395657,0.285004
1,CHOMP,0.264092,-0.539781,0.203537,1.07805,-0.159619,0.386424,0.297232
1,CHOMP,0.274955,-0.529677,0.211913,1.06496,-0.166189,0.377191,0.309461
1,CHOMP,0.285818,-0.519572,0.220289,1.05187,-0.172759,0.367958,0.321689
1,CHOMP,0.296681,-0.509467,0.228665,1.03878,-0.179329,0.358725,0.333918
1,CHOMP,0.307545,-0.499363,0.237041,1.02569,-0.185899,0.349491,0.346146
1,CHOMP,0.318408,-0.489258,0.245417,1.0126,-0.192469,0.340258,0.358375
1,CHOMP,0.329271,-0.479153,0.253793,0.99951,-0.199039,0.331025,0.370603
1,CHOMP,0.340134,-0.469049,0.262169,0.98642,-0.205609,0.321792,0.382832
1,CHOMP,0.350997,-0.458944,0.270545,0.97333,-0.212179,0.312559,0.39506
1,CHOMP,0.36186,-0.448839,0.278921,0.96024,-0.218749,0.303326,0.407289
1,CHOMP,0.372724,-0.438735,0.287297,0.94715,-0.225319,0.294092,0.419517
1,CHOMP,0.383587,-0.42863,0.295673,0.93406,-0.231889,0.284859,0.431746
1,CHOMP,0.39445,-0.418525,0.304049,0.92097,-0.23846,0.275626,0.443974
1,CHOMP,0.405313,-0.408421,0.312425,0.90788,-0.24503,0.266393,0.456203
1,CHOMP,0.416176,-0.398316,0.320801,0.89479,-0.2516,0.25716,0.468432
1,CHOMP,0.42704,-0.388211,0.329177,0.8817,-0.25817,0.247926,0.48066
1,CHOMP,0.437903,-0.378107,0.337553,0.86861,-0.26474,0.238693,0.492889
1,CHOMP,0.448766,-0.368002,0.345929,0.85552,-0.27131,0.22946,0.505117
1,CHOMP,0.459629,-0.357897,0.354305,0.84243,-0.27788,0.220227,0.517346
1,CHOMP,0.470492,-0.347793,0.362681,0.82934,-0.28445,0.210994,0.529574
1,CHOMP,0.481356,-0.337688,0.371057,0.81625,-0.29102,0.201761,0.541803
1,CHOMP,0.492219,-0.327583,0.379433,0.80316,-0.29759,0.192527,0.554031
1,CHOMP,0.503082,-0.317479,0.387809,0.79007,-0.30416,0.183294,0.56626
1,CHOMP,0.513945,-0.307374,0.396185,0.77698,-0.310731,0.174061,0.578488
1,CHOMP,0.524808,-0.297269,0.404561,0.76389,-0.317301,0.164828,0.590717
1,CHOMP,0.535672,-0.287165,0.412937,0.7508,-0.323871,0.155595,0.602945
1,CHOMP,0.546535,-0.27706,0.421313,0.73771,-0.330441,0.146362,0.615174
1,CHOMP,0.557398,-0.266956,0.429689,0.72462,-0.337011,0.137128,0.627402
1,CHOMP,0.568261,-0.256851,0.438065,0.71153,-0.343581,0.127895,0.639631
1,CHOMP,0.579124,-0.246746,0.446441,0.69844,-0.350151,0.118662,0.651859
1,CHOMP,0.589988,-0.236642,0.454817,0.68535,-0.356721,0.109429,0.664088
1,CHOMP,0.600851,-0.226537,0.463193,0.67226,-0.363291,0.100196,0.676317
1,CHOMP,0.611714,-0.216432,0.471569,0.65917,-0.369861,0.0909625,0.688545
1,CHOMP,0.622577,-0.206328,0.479945,0.64608,-0.376431,0.0817293,0.700774
1,CHOMP,0.63344,-0.196223,0.488321,0.63299,-0.383002,0.0724962,0.713002
1,CHOMP,0.644304,-0.186118,0.496697,0.6199,-0.389572,0.063263,0.725231
1,CHOMP,0.655167,-0.176014,0.505073,0.60681,-0.396142,0.0540298,0.737459
1,CHOMP,0.66603,-0.165909,0.513449,0.59372,-0.402712,0.0447966,0.749688
1,CHOMP,0.676893,-0.155804,0.521825,0.58063,-0.409282,0.0355635,0.761916
1,CHOMP,0.687756,-0.1457,0.530201,0.56754,-0.415852,0.0263303,0.774145
1,CHOMP,0.69862,-0.135595,0.538577,0.55445,-0.422422,0.0170971,0.786373
1,CHOMP,0.709483,-0.12549,0.546953,0.54136,-0.428992,0.00786393,0.798602
1,CHOMP,0.720346,-0.115386,0.555329,0.52827,-0.435562,-0.00136924,0.81083
1,CHOMP,0.731209,-0.105281,0.563705,0.51518,-0.442132,-0.0106024,0.823059
1,CHOMP,0.742072,-0.0951763,0.572081,0.50209,-0.448702,-0.0198356,0.835287
1,CHOMP,0.752936,-0.0850716,0.580457,0.489,-0.455272,-0.0290688,0.847516
1,CHOMP,0.763799,-0.074967,0.588833,0.47591,-0.461843,-0.0383019,0.859744
1,CHOMP,0.774662,-0.0648623,0.597209,0.46282,-0.468413,-0.0475351,0.871973
1,CHOMP,0.785525,-0.0547576,0.605585,0.44973,-0.474983,-0.0567683,0.884202
1,CHOMP,0.796388,-0.044653,0.613961,0.43664,-0.481553,-0.0660015,0.89643
1,CHOMP,0.807252,-0.0345483,0.622337,0.42355,-0.488123,-0.0752346,0.908659
1,CHOMP,0.818115,-0.0244437,0.630713,0.41046,-0.494693,-0.0844678,0.920887
1,CHOMP,0.828978,-0.014339,0.639089,0.39737,-0.501263,-0.093701,0.933116
1,CHOMP,0.839841,-0.00423433,0.647465,0.38428,-0.507833,-0.102934,0.945344
1,CHOMP,0.850704,0.00587033,0.655841,0.37119,-0.514403,-0.112167,0.957573
1,CHOMP,0.861568,0.015975,0.664217,0.3581,-0.520973,-0.121401,0.969801
1,CHOMP,0.872431,0.0260796,0.672593,0.34501,-0.527543,-0.130634,0.98203
1,CHOMP,0.883294,0.0361843,0.680969,0.33192,-0.534114,-0.139867,0.994258
1,CHOMP,0.894157,0.046289,0.689345,0.31883,-0.540684,-0.1491,1.00649
1,CHOMP,0.90502,0.0563936,0.697721,0.30574,-0.547254,-0.158333,1.01872
1,CHOMP,0.915884,0.0664983,0.706097,0.29265,-0.553824,-0.167566,1.03094
1,CHOMP,0.926747,0.076603,0.714473,0.27956,-0.560394,-0.1768,1.04317
1,CHOMP,0.93761,0.0867076,0.722849,0.26647,-0.566964,-0.186033,1.0554
1,CHOMP,0.948473,0.0968123,0.731225,0.25338,-0.573534,-0.195266,1.06763
1,CHOMP,0.959336,0.106917,0.739601,0.24029,-0.580104,-0.204499,1.07986
1,CHOMP,0.9702,0.117022,0.747977,0.2272,-0.586674,-0.213732,1.09209
1,CHOMP,0.981063,0.127126,0.756353,0.21411,-0.593244,-0.222965,1.10432
1,CHOMP,0.991926,0.137231,0.764729,0.20102,-0.599814,-0.232199,1.11654
1,CHOMP,1.00279,0.147336,0.773105,0.18793,-0.606385,-0.241432,1.12877
1,CHOMP,1.01365,0.15744,0.781481,0.17484,-0.612955,-0.250665,1.141
1,CHOMP,1.02452,0.167545,0.789857,0.16175,-0.619525,-0.259898,1.15323
1,CHOMP,1.03538,0.17765,0.798233,0.14866,-0.626095,-0.269131,1.16546
1,CHOMP,1.04624,0.187754,0.806609,0.13557,-0.632665,-0.278364,1.17769
1,CHOMP,1.05711,0.197859,0.814985,0.12248,-0.639235,-0.287598,1.18991
1,CHOMP,1.06797,0.207964,0.823361,0.10939,-0.645805,-0.296831,1.20214
1,CHOMP,1.07883,0.218068,0.831737,0.0963005,-0.652375,-0.306064,1.21437
1,CHOMP,1.08969,0.228173,0.840113,0.0832105,-0.658945,-0.315297,1.2266
1,CHOMP,1.10056,0.238278,0.848489,0.0701205,-0.665515,-0.32453,1.23883
1,CHOMP,1.11142,0.248382,0.856865,0.0570305,-0.672085,-0.333764,1.25106
1,CHOMP,1.12228,0.258487,0.865241,0.0439405,-0.678656,-0.342997,1.26329
1,CHOMP,1.13315,0.268592,0.873617,0.0308505,-0.685226,-0.35223,1.27551
1,CHOMP,1.14401,0.278696,0.881993,0.0177605,-0.691796,-0.361463,1.28774
1,CHOMP,1.15487,0.288801,0.890369,0.00467047,-0.698366,-0.370696,1.29997
1,CHOMP,1.16574,0.298905,0.898745,-0.00841953,-0.704936,-0.379929,1.3122
1,CHOMP,1.1766,0.30901,0.907121,-0.0215095,-0.711506,-0.389163,1.32443
1,CHOMP,1.18746,0.319115,0.915497,-0.0345995,-0.718076,-0.398396,1.33666
1,CHOMP,1.19833,0.329219,0.923873,-0.0476895,-0.724646,-0.407629,1.34889
1,CHOMP,1.20919,0.339324,0.932249,-0.0607795,-0.731216,-0.416862,1.36111
1,CHOMP,1.22005,0.349429,0.940625,-0.0738695,-0.737786,-0.426095,1.37334
1,CHOMP,1.23092,0.359533,0.949001,-0.0869595,-0.744356,-0.435328,1.38557
1,CHOMP,1.24178,0.369638,0.957377,-0.10005,-0.750926,-0.444562,1.3978
1,CHOMP,1.25264,0.379743,0.965753,-0.11314,-0.757497,-0.453795,1.41003
1,CHOMP,1.26351,0.389847,0.974129,-0.12623,-0.764067,-0.463028,1.42226
1,CHOMP,1.27437,0.399952,0.982505,-0.13932,-0.770637,-0.472261,1.43449
1,CHOMP,1.28523,0.410057,0.990881,-0.15241,-0.777207,-0.481494,1.44671
1,CHOMP,1.2961,0.420161,0.999257,-0.1655,-0.783777,-0.490728,1.45894
1,CHOMP,1.30696,0.430266,1.00763,-0.17859,-0.790347,-0.499961,1.47117
1,CHOMP,1.31782,0.440371,1.01601,-0.19168,-0.796917,-0.509194,1.4834
1,CHOMP,1.32869,0.450475,1.02439,-0.20477,-0.803487,-0.518427,1.49563
1,CHOMP,1.33955,0.46058,1.03276,-0.21786,-0.810057,-0.52766,1.50786
1,CHOMP,1.35041,0.470685,1.04114,-0.23095,-0.816627,-0.536893,1.52009
1,CHOMP,1.36127,0.480789,1.04951,-0.24404,-0.823197,-0.546127,1.53231
1,CHOMP,1.37214,0.490894,1.05789,-0.25713,-0.829768,-0.55536,1.54454
1,CHOMP,1.383,0.500999,1.06627,-0.27022,-0.836338,-0.564593,1.55677
1,CHOMP,1.39386,0.511103,1.07464,-0.28331,-0.842908,-0.573826,1.569
1,CHOMP,1.40473,0.521208,1.08302,-0.2964,-0.849478,-0.583059,1.58123
1,CHOMP,1.41559,0.531313,1.09139,-0.30949,-0.856048,-0.592292,1.59346
1,CHOMP,1.42645,0.541417,1.09977,-0.32258,-0.862618,-0.601526,1.60568
1,CHOMP,1.43732,0.551522,1.10815,-0.33567,-0.869188,-0.610759,1.61791
1,CHOMP,1.44818,0.561627,1.11652,-0.34876,-0.875758,-0.619992,1.63014
1,CHOMP,1.45904,0.571731,1.1249,-0.36185,-0.882328,-0.629225,1.64237
1,CHOMP,1.46991,0.581836,1.13327,-0.37494,-0.888898,-0.638458,1.6546
1,CHOMP,1.48077,0.591941,1.14165,-0.38803,-0.895468,-0.647692,1.66683
1,CHOMP,1.49163,0.602045,1.15003,-0.40112,-0.902039,-0.656925,1.67906
1,CHOMP,1.5025,0.61215,1.1584,-0.41421,-0.908609,-0.666158,1.69128
1,CHOMP,1.51336,0.622255,1.16678,-0.4273,-0.915179,-0.675391,1.70351
1,CHOMP,1.52422,0.632359,1.17515,-0.44039,-0.921749,-0.684624,1.71574
1,CHOMP,1.53509,0.642464,1.18353,-0.45348,-0.928319,-0.693857,1.72797
1,CHOMP,1.54595,0.652569,1.19191,-0.46657,-0.934889,-0.703091,1.7402
1,CHOMP,1.55681,0.662673,1.20028,-0.47966,-0.941459,-0.712324,1.75243
1,CHOMP,1.56768,0.672778,1.20866,-0.49275,-0.948029,-0.721557,1.76466
1,CHOMP,1.57854,0.682883,1.21703,-0.50584,-0.954599,-0.73079,1.77688
1,CHOMP,1.5894,0.692987,1.22541,-0.51893,-0.961169,-0.740023,1.78911
1,CHOMP,1.60027,0.703092,1.23379,-0.53202,-0.967739,-0.749256,1.80134
1,CHOMP,1.61113,0.713197,1.24216,-0.54511,-0.974309,-0.75849,1.81357
1,CHOMP,1.62199,0.723301,1.25054,-0.5582,-0.98088,-0.767723,1.8258
1,CHOMP,1.63285,0.733406,1.25891,-0.57129,-0.98745,-0.776956,1.83803
1,CHOMP,1.64372,0.743511,1.26729,-0.58438,-0.99402,-0.786189,1.85026
1,CHOMP,1.65458,0.753615,1.27567,-0.59747,-1.00059,-0.795422,1.86248
1,CHOMP,1.66544,0.76372,1.28404,-0.61056,-1.00716,-0.804655,1.87471
1,CHOMP,1.67631,0.773825,1.29242,-0.62365,-1.01373,-0.813889,1.88694
1,CHOMP,1.68717,0.783929,1.30079,-0.63674,-1.0203,-0.823122,1.89917
1,CHOMP,1.69803,0.794034,1.30917,-0.64983,-1.02687,-0.832355,1.9114
1,CHOMP,1.7089,0.804139,1.31755,-0.66292,-1.03344,-0.841588,1.92363
1,CHOMP,1.71976,0.814243,1.32592,-0.67601,-1.04001,-0.850821,1.93586
1,CHOMP,1.73062,0.824348,1.3343,-0.6891,-1.04658,-0.860055,1.94808
1,CHOMP,1.74149,0.834453,1.34267,-0.70219,-1.05315,-0.869288,1.96031
1,CHOMP,1.75235,0.844557,1.35105,-0.71528,-1.05972,-0.878521,1.97254
1,CHOMP,1.76321,0.854662,1.35943,-0.72837,-1.06629,-0.887754,1.98477
1,CHOMP,1.77408,0.864766,1.3678,-0.74146,-1.07286,-0.896987,1.997
1,CHOMP,1.78494,0.874871,1.37618,-0.75455,-1.07943,-0.90622,2.00923
1,CHOMP,1.7958,0.884976,1.38455,-0.76764,-1.086,-0.915454,2.02145
1,CHOMP,1.80667,0.89508,1.39293,-0.78073,-1.09257,-0.924687,2.03368
1,CHOMP,1.81753,0.905185,1.40131,-0.79382,-1.09914,-0.93392,2.04591
1,CHOMP,1.82839,0.91529,1.40968,-0.80691,-1.10571,-0.943153,2.05814
1,CHOMP,1.83926,0.925394,1.41806,-0.82,-1.11228,-0.952386,2.07037
1,CHOMP,1.85012,0.935499,1.42643,-0.83309,-1.11885,-0.961619,2.0826
1,CHOMP,1.86098,0.945604,1.43481,-0.84618,-1.12542,-0.970853,2.09483
1,CHOMP,1.87185,0.955708,1.44319,-0.85927,-1.13199,-0.980086,2.10705
1,CHOMP,1.88271,0.965813,1.45156,-0.87236,-1.13856,-0.989319,2.11928
1,CHOMP,1.89357,0.975918,1.45994,-0.88545,-1.14513,-0.998552,2.13151
1,CHOMP,1.90443,0.986022,1.46831,-0.89854,-1.1517,-1.00779,2.14374
1,CHOMP,1.9153,0.996127,1.47669,-0.91163,-1.15827,-1.01702,2.15597
1,CHOMP,1.92616,1.00623,1.48507,-0.92472,-1.16484,-1.02625,2.1682
1,CHOMP,1.93702,1.01634,1.49344,-0.93781,-1.17141,-1.03548,2.18043
1,CHOMP,1.94789,1.02644,1.50182,-0.9509,-1.17798,-1.04472,2.19265
1,CHOMP,1.95875,1.03655,1.51019,-0.96399,-1.18455,-1.05395,2.20488
1,CHOMP,1.96961,1.04665,1.51857,-0.97708,-1.19112,-1.06318,2.21711
1,CHOMP,1.98048,1.05676,1.52695,-0.99017,-1.19769,-1.07242,2.22934
1,CHOMP,1.99134,1.06686,1.53532,-1.00326,-1.20426,-1.08165,2.24157
1,CHOMP,2.0022,1.07696,1.5437,-1.01635,-1.21083,-1.09088,2.2538
1,CHOMP,2.01307,1.08707,1.55207,-1.02944,-1.2174,-1.10012,2.26603
1,CHOMP,2.02393,1.09717,1.56045,-1.04253,-1.22397,-1.10935,2.27825
1,CHOMP,2.03479,1.10728,1.56883,-1.05562,-1.23054,-1.11858,2.29048
1,CHOMP,2.04566,1.11738,1.5772,-1.06871,-1.23711,-1.12782,2.30271
1,CHOMP,2.05652,1.12749,1.58558,-1.0818,-1.24368,-1.13705,2.31494
1,CHOMP,2.06738,1.13759,1.59395,-1.09489,-1.25025,-1.14628,2.32717
1,CHOMP,2.07825,1.1477,1.60233,-1.10798,-1.25682,-1.15552,2.3394
1,CHOMP,2.08911,1.1578,1.61071,-1.12107,-1.26339,-1.16475,2.35163
1,CHOMP,2.09997,1.16791,1.61908,-1.13416,-1.26996,-1.17398,2.36385
1,CHOMP,2.11084,1.17801,1.62746,-1.14725,-1.27653,-1.18322,2.37608
1,CHOMP,2.1217,1.18812,1.63583,-1.16034,-1.2831,-1.19245,2.38831
1,CHOMP,2.13256,1.19822,1.64421,-1.17343,-1.28967,-1.20168,2.40054
1,CHOMP,2.14343,1.20832,1.65259,-1.18652,-1.29624,-1.21092,2.41277
1,CHOMP,2.15429,1.21843,1.66096,-1.19961,-1.30281,-1.22015,2.425
1,CHOMP,2.16515,1.22853,1.66934,-1.2127,-1.30938,-1.22938,2.43722
1,CHOMP,2.17601,1.23864,1.67771,-1.22579,-1.31595,-1.23861,2.44945
1,CHOMP,2.18688,1.24874,1.68609,-1.23888,-1.32252,-1.24785,2.46168
1,CHOMP,2.19774,1.25885,1.69447,-1.25197,-1.32909,-1.25708,2.47391
1,CHOMP,2.2086,1.26895,1.70284,-1.26506,-1.33566,-1.26631,2.48614
1,CHOMP,2.21947,1.27906,1.71122,-1.27815,-1.34223,-1.27555,2.49837
1,CHOMP,2.23033,1.28916,1.71959,-1.29124,-1.3488,-1.28478,2.5106
1,CHOMP,2.24119,1.29927,1.72797,-1.30433,-1.35537,-1.29401,2.52282
1,CHOMP,2.25206,1.30937,1.73635,-1.31742,-1.36194,-1.30325,2.53505
1,CHOMP,2.26292,1.31948,1.74472,-1.33051,-1.36851,-1.31248,2.54728
1,CHOMP,2.27281,1.32867,1.75234,-1.34242,-1.37449,-1.32088,2.55841
1,CHOMP,2.28068,1.336,1.75841,-1.35191,-1.37926,-1.32757,2.56727
1,CHOMP,2.28654,1.34144,1.76293,-1.35897,-1.3828,-1.33255,2.57386
1,CHOMP,2.29038,1.34501,1.76589,-1.36359,-1.38512,-1.33582,2.57819
1,CHOMP,2.2922,1.34671,1.7673,-1.36579,-1.38622,-1.33737,2.58024
1,CHOMP,2.29237,1.34687,1.76743,-1.36599,-1.38632,-1.33751,2.58043
2,RRT,3.87414e-05,-0.785421,-9.66027e-05,1.39616,-6.26331e-05,0.610929,-1.40742e-05
2,RRT,0.00101941,-0.784484,0.00091346,1.39521,-0.00101905,0.61051,0.00104314
2,RRT,0.00396143,-0.781671,0.00394365,1.39234,-0.00388832,0.609254,0.00421477
2,RRT,0.00886478,-0.776984,0.00899396,1.38756,-0.00867042,0.607161,0.00950083
2,RRT,0.0157295,-0.770421,0.0160644,1.38086,-0.0153654,0.60423,0.0169013
2,RRT,0.0245555,-0.761984,0.025155,1.37226,-0.0239732,0.600462,0.0264162
2,RRT,0.0353429,-0.751671,0.0362656,1.36174,-0.0344938,0.595857,0.0380455
2,RRT,0.0480681,-0.739506,0.0493722,1.34933,-0.0469043,0.590425,0.0517639
2,RRT,0.0614936,-0.726672,0.0632001,1.33624,-0.0599979,0.584693,0.0662373
2,RRT,0.0749192,-0.713837,0.0770281,1.32315,-0.0730914,0.578962,0.0807107
2,RRT,0.0883448,-0.701002,0.090856,1.31006,-0.086185,0.573231,0.0951841
2,RRT,0.10177,-0.688168,0.104684,1.29697,-0.0992786,0.567499,0.109658
2,RRT,0.115196,-0.675333,0.118512,1.28388,-0.112372,0.561768,0.124131
2,RRT,0.128621,-0.662499,0.13234,1.27079,-0.125466,0.556036,0.138604
2,RRT,0.142047,-0.649664,0.146168,1.2577,-0.138559,0.550305,0.153078
2,RRT,0.155473,-0.63683,0.159996,1.24461,-0.151653,0.544573,0.167551
2,RRT,0.168898,-0.623995,0.173824,1.23152,-0.164746,0.538842,0.182025
2,RRT,0.182324,-0.611161,0.187652,1.21843,-0.17784,0.533111,0.196498
2,RRT,0.195749,-0.598326,0.201479,1.20534,-0.190934,0.527379,0.210971
2,RRT,0.209175,-0.585492,0.215307,1.19225,-0.204027,0.521648,0.225445
2,RRT,0.2226,-0.572657,0.229135,1.17916,-0.217121,0.515916,0.239918
2,RRT,0.236026,-0.559822,0.242963,1.16607,-0.230214,0.510185,0.254392
2,RRT,0.249452,-0.546988,0.256791,1.15298,-0.243308,0.504454,0.268865
2,RRT,0.262877,-0.534153,0.270619,1.13989,-0.256402,0.498722,0.283338
2,RRT,0.276303,-0.521319,0.284447,1.1268,-0.269495,0.492991,0.297812
2,RRT,0.289728,-0.508484,0.298275,1.11371,-0.282589,0.487259,0.312285
2,RRT,0.303154,-0.49565,0.312103,1.10062,-0.295682,0.481528,0.326759
2,RRT,0.316579,-0.482815,0.325931,1.08753,-0.308776,0.475796,0.341232
2,RRT,0.330005,-0.469981,0.339759,1.07444,-0.321869,0.470065,0.355706
2,RRT,0.343431,-0.457146,0.353587,1.06135,-0.334963,0.464334,0.370179
2,RRT,0.356856,-0.444312,0.367415,1.04826,-0.348057,0.458602,0.384652
2,RRT,0.370282,-0.431477,0.381243,1.03517,-0.36115,0.452871,0.399126
2,RRT,0.383707,-0.418642,0.395071,1.02208,-0.374244,0.447139,0.413599
2,RRT,0.397133,-0.405808,0.408898,1.00899,-0.387337,0.441408,0.428073
2,RRT,0.410558,-0.392973,0.422726,0.995902,-0.400431,0.435676,0.442546
2,RRT,0.423984,-0.380139,0.436554,0.982812,-0.413524,0.429945,0.457019
2,RRT,0.43741,-0.367304,0.450382,0.969722,-0.426618,0.424214,0.471493
2,RRT,0.450835,-0.35447,0.46421,0.956632,-0.439712,0.418482,0.485966
2,RRT,0.464261,-0.341635,0.478038,0.943542,-0.452805,0.412751,0.50044
2,RRT,0.477686,-0.328801,0.491866,0.930452,-0.465899,0.407019,0.514913
2,RRT,0.491112,-0.315966,0.505694,0.917362,-0.478992,0.401288,0.529386
2,RRT,0.504537,-0.303132,0.519522,0.904272,-0.492086,0.395556,0.54386
2,RRT,0.517963,-0.290297,0.53335,0.891182,-0.505179,0.389825,0.558333
2,RRT,0.531389,-0.277463,0.547178,0.878092,-0.518273,0.384094,0.572807
2,RRT,0.544814,-0.264628,0.561006,0.865002,-0.531367,0.378362,0.58728
2,RRT,0.55824,-0.251793,0.574834,0.851912,-0.54446,0.372631,0.601754
2,RRT,0.571665,-0.238959,0.588662,0.838822,-0.557554,0.366899,0.616227
2,RRT,0.585091,-0.226124,0.60249,0.825732,-0.570647,0.361168,0.6307
2,RRT,0.598516,-0.21329,0.616318,0.812642,-0.583741,0.355436,0.645174
2,RRT,0.611942,-0.200455,0.630145,0.799552,-0.596835,0.349705,0.659647
2,RRT,0.625367,-0.187621,0.643973,0.786462,-0.609928,0.343974,0.674121
2,RRT,0.638793,-0.174786,0.657801,0.773372,-0.623022,0.338242,0.688594
2,RRT,0.652219,-0.161952,0.671629,0.760282,-0.636115,0.332511,0.703067
2,RRT,0.665644,-0.149117,0.685457,0.747192,-0.649209,0.326779,0.717541
2,RRT,0.67907,-0.136283,0.699285,0.734102,-0.662302,0.321048,0.732014
2,RRT,0.692495,-0.123448,0.713113,0.721012,-0.675396,0.315316,0.746488
2,RRT,0.705921,-0.110613,0.726941,0.707922,-0.68849,0.309585,0.760961
2,RRT,0.719346,-0.0977789,0.740769,0.694832,-0.701583,0.303854,0.775434
2,RRT,0.732772,-0.0849444,0.754597,0.681742,-0.714677,0.298122,0.789908
2,RRT,0.746198,-0.0721098,0.768425,0.668652,-0.72777,0.292391,0.804381
2,RRT,0.759623,-0.0592753,0.782253,0.655562,-0.740864,0.286659,0.818855
2,RRT,0.773049,-0.0464407,0.796081,0.642472,-0.753957,0.280928,0.833328
2,RRT,0.786474,-0.0336062,0.809909,0.629382,-0.767051,0.275197,0.847801
2,RRT,0.7999,-0.0207717,0.823737,0.616292,-0.780145,0.269465,0.862275
2,RRT,0.813325,-0.00793711,0.837564,0.603202,-0.793238,0.263734,0.876748
2,RRT,0.826751,0.00489743,0.851392,0.590112,-0.806332,0.258002,0.891222
2,RRT,0.840177,0.017732,0.86522,0.577022,-0.819425,0.252271,0.905695
2,RRT,0.853602,0.0305665,0.879048,0.563932,-0.832519,0.246539,0.920169
2,RRT,0.867028,0.0434011,0.892876,0.550842,-0.845612,0.240808,0.934642
2,RRT,0.880453,0.0562356,0.906704,0.537752,-0.858706,0.235077,0.949115
2,RRT,0.893879,0.0690701,0.920532,0.524662,-0.8718,0.229345,0.963589
2,RRT,0.907304,0.0819047,0.93436,0.511572,-0.884893,0.223614,0.978062
2,RRT,0.92073,0.0947392,0.948188,0.498482,-0.897987,0.217882,0.992536
2,RRT,0.934156,0.107574,0.962016,0.485392,-0.91108,0.212151,1.00701
2,RRT,0.947581,0.120408,0.975844,0.472302,-0.924174,0.206419,1.02148
2,RRT,0.961007,0.133243,0.989672,0.459212,-0.937268,0.200688,1.03596
2,RRT,0.974432,0.146077,1.0035,0.446122,-0.950361,0.194957,1.05043
2,RRT,0.987858,0.158912,1.01733,0.433032,-0.963455,0.189225,1.0649
2,RRT,1.00128,0.171746,1.03116,0.419942,-0.976548,0.183494,1.07938
2,RRT,1.01471,0.184581,1.04498,0.406852,-0.989642,0.177762,1.09385
2,RRT,1.02813,0.197416,1.05881,0.393762,-1.00274,0.172031,1.10832
2,RRT,1.04156,0.21025,1.07264,0.380672,-1.01583,0.166299,1.1228
2,RRT,1.05499,0.223085,1.08647,0.367582,-1.02892,0.160568,1.13727
2,RRT,1.06841,0.235919,1.1003,0.354492,-1.04202,0.154837,1.15174
2,RRT,1.08184,0.248754,1.11412,0.341402,-1.05511,0.149105,1.16622
2,RRT,1.09526,0.261588,1.12795,0.328312,-1.0682,0.143374,1.18069
2,RRT,1.10869,0.274423,1.14178,0.315222,-1.0813,0.137642,1.19516
2,RRT,1.12211,0.287257,1.15561,0.302132,-1.09439,0.131911,1.20964
2,RRT,1.13554,0.300092,1.16943,0.289042,-1.10748,0.126179,1.22411
2,RRT,1.14896,0.312926,1.18326,0.275952,-1.12058,0.120448,1.23858
2,RRT,1.16239,0.325761,1.19709,0.262862,-1.13367,0.114717,1.25306
2,RRT,1.17582,0.338596,1.21092,0.249772,-1.14676,0.108985,1.26753
2,RRT,1.18924,0.35143,1.22475,0.236682,-1.15986,0.103254,1.282
2,RRT,1.20267,0.364265,1.23857,0.223592,-1.17295,0.0975223,1.29648
2,RRT,1.21609,0.377099,1.2524,0.210502,-1.18605,0.0917909,1.31095
2,RRT,1.22952,0.389934,1.26623,0.197412,-1.19914,0.0860595,1.32542
2,RRT,1.24294,0.402768,1.28006,0.184322,-1.21223,0.080328,1.3399
2,RRT,1.25637,0.415603,1.29389,0.171232,-1.22533,0.0745966,1.35437
2,RRT,1.26979,0.428437,1.30771,0.158142,-1.23842,0.0688652,1.36884
2,RRT,1.28322,0.441272,1.32154,0.145052,-1.25151,0.0631338,1.38332
2,RRT,1.29665,0.454106,1.33537,0.131962,-1.26461,0.0574023,1.39779
2,RRT,1.31007,0.466941,1.3492,0.118872,-1.2777,0.0516709,1.41226
2,RRT,1.3235,0.479776,1.36303,0.105782,-1.29079,0.0459395,1.42674
2,RRT,1.33692,0.49261,1.37685,0.0926924,-1.30389,0.0402081,1.44121
2,RRT,1.35035,0.505445,1.39068,0.0796024,-1.31698,0.0344766,1.45568
2,RRT,1.36377,0.518279,1.40451,0.0665124,-1.33007,0.0287452,1.47016
2,RRT,1.3772,0.531114,1.41834,0.0534224,-1.34317,0.0230138,1.48463
2,RRT,1.39062,0.543948,1.43217,0.0403324,-1.35626,0.0172824,1.4991
2,RRT,1.40405,0.556783,1.44599,0.0272424,-1.36936,0.0115509,1.51358
2,RRT,1.41748,0.569617,1.45982,0.0141524,-1.38245,0.00581952,1.52805
2,RRT,1.4309,0.582452,1.47365,0.00106243,-1.39554,8.80953e-05,1.54253
2,RRT,1.44433,0.595286,1.48748,-0.0120276,-1.40864,-0.00564333,1.557
2,RRT,1.45775,0.608121,1.50131,-0.0251176,-1.42173,-0.0113748,1.57147
2,RRT,1.47118,0.620956,1.51513,-0.0382076,-1.43482,-0.0171062,1.58595
2,RRT,1.4846,0.63379,1.52896,-0.0512976,-1.44792,-0.0228376,1.60042
2,RRT,1.49803,0.646625,1.54279,-0.0643876,-1.46101,-0.028569,1.61489
2,RRT,1.51145,0.659459,1.55662,-0.0774776,-1.4741,-0.0343005,1.62937
2,RRT,1.52488,0.672294,1.57045,-0.0905676,-1.4872,-0.0400319,1.64384
2,RRT,1.53831,0.685128,1.58427,-0.103658,-1.50029,-0.0457633,1.65831
2,RRT,1.55173,0.697963,1.5981,-0.116748,-1.51338,-0.0514947,1.67279
2,RRT,1.56516,0.710797,1.61193,-0.129838,-1.52648,-0.0572262,1.68726
2,RRT,1.57858,0.723632,1.62576,-0.142928,-1.53957,-0.0629576,1.70173
2,RRT,1.59201,0.736466,1.63958,-0.156018,-1.55267,-0.068689,1.71621
2,RRT,1.60543,0.749301,1.65341,-0.169108,-1.56576,-0.0744204,1.73068
2,RRT,1.61886,0.762135,1.66724,-0.182198,-1.57885,-0.0801519,1.74515
2,RRT,1.63229,0.77497,1.68107,-0.195288,-1.59195,-0.0858833,1.75963
2,RRT,1.64571,0.787805,1.6949,-0.208378,-1.60504,-0.0916147,1.7741
2,RRT,1.65914,0.800639,1.70872,-0.221468,-1.61813,-0.0973461,1.78857
2,RRT,1.67256,0.813474,1.72255,-0.234558,-1.63123,-0.103078,1.80305
2,RRT,1.68599,0.826308,1.73638,-0.247648,-1.64432,-0.108809,1.81752
2,RRT,1.69941,0.839143,1.75021,-0.260738,-1.65741,-0.11454,1.83199
2,RRT,1.71284,0.851977,1.76404,-0.273828,-1.67051,-0.120272,1.84647
2,RRT,1.72626,0.864812,1.77786,-0.286918,-1.6836,-0.126003,1.86094
2,RRT,1.73969,0.877646,1.79169,-0.300008,-1.6967,-0.131735,1.87541
2,RRT,1.75312,0.890481,1.80552,-0.313098,-1.70979,-0.137466,1.88989
2,RRT,1.76654,0.903315,1.81935,-0.326188,-1.72288,-0.143198,1.90436
2,RRT,1.77997,0.91615,1.83318,-0.339278,-1.73598,-0.148929,1.91883
2,RRT,1.79339,0.928985,1.847,-0.352368,-1.74907,-0.15466,1.93331
2,RRT,1.80682,0.941819,1.86083,-0.365458,-1.76216,-0.160392,1.94778
2,RRT,1.82024,0.954654,1.87466,-0.378548,-1.77526,-0.166123,1.96225
2,RRT,1.83367,0.967488,1.88849,-0.391638,-1.78835,-0.171855,1.97673
2,RRT,1.84709,0.980323,1.90232,-0.404728,-1.80144,-0.177586,1.9912
2,RRT,1.86052,0.993157,1.91614,-0.417818,-1.81454,-0.183318,2.00567
2,RRT,1.87395,1.00599,1.92997,-0.430908,-1.82763,-0.189049,2.02015
2,RRT,1.88737,1.01883,1.9438,-0.443998,-1.84072,-0.19478,2.03462
2,RRT,1.9008,1.03166,1.95763,-0.457088,-1.85382,-0.200512,2.04909
2,RRT,1.91422,1.0445,1.97146,-0.470178,-1.86691,-0.206243,2.06357
2,RRT,1.92765,1.05733,1.98528,-0.483268,-1.88001,-0.211975,2.07804
2,RRT,1.94107,1.07016,1.99911,-0.496358,-1.8931,-0.217706,2.09251
2,RRT,1.9545,1.083,2.01294,-0.509448,-1.90619,-0.223437,2.10699
2,RRT,1.96792,1.09583,2.02677,-0.522538,-1.91929,-0.229169,2.12146
2,RRT,1.98135,1.10867,2.04059,-0.535628,-1.93238,-0.2349,2.13594
2,RRT,1.99478,1.1215,2.05442,-0.548718,-1.94547,-0.240632,2.15041
2,RRT,2.0082,1.13434,2.06825,-0.561808,-1.95857,-0.246363,2.16488
2,RRT,2.02163,1.14717,2.08208,-0.574898,-1.97166,-0.252095,2.17936
2,RRT,2.03505,1.16001,2.09591,-0.587988,-1.98475,-0.257826,2.19383
2,RRT,2.04848,1.17284,2.10973,-0.601078,-1.99785,-0.263557,2.2083
2,RRT,2.0619,1.18568,2.12356,-0.614168,-2.01094,-0.269289,2.22278
2,RRT,2.07533,1.19851,2.13739,-0.627258,-2.02403,-0.27502,2.23725
2,RRT,2.08875,1.21134,2.15122,-0.640348,-2.03713,-0.280752,2.25172
2,RRT,2.10218,1.22418,2.16505,-0.653438,-2.05022,-0.286483,2.2662
2,RRT,2.11561,1.23701,2.17887,-0.666528,-2.06332,-0.292215,2.28067
2,RRT,2.12903,1.24985,2.1927,-0.679618,-2.07641,-0.297946,2.29514
2,RRT,2.14246,1.26268,2.20653,-0.692708,-2.0895,-0.303677,2.30962
2,RRT,2.15588,1.27552,2.22036,-0.705798,-2.1026,-0.309409,2.32409
2,RRT,2.16931,1.28835,2.23419,-0.718888,-2.11569,-0.31514,2.33856
2,RRT,2.18273,1.30119,2.24801,-0.731978,-2.12878,-0.320872,2.35304
2,RRT,2.19616,1.31402,2.26184,-0.745068,-2.14188,-0.326603,2.36751
2,RRT,2.20958,1.32686,2.27567,-0.758158,-2.15497,-0.332335,2.38198
2,RRT,2.22301,1.33969,2.2895,-0.771248,-2.16806,-0.338066,2.39646
2,RRT,2.23644,1.35252,2.30333,-0.784338,-2.18116,-0.343797,2.41093
2,RRT,2.24986,1.36536,2.31715,-0.797428,-2.19425,-0.349529,2.4254
2,RRT,2.26329,1.37819,2.33098,-0.810518,-2.20734,-0.35526,2.43988
2,RRT,2.27671,1.39103,2.34481,-0.823608,-2.22044,-0.360992,2.45435
2,RRT,2.29014,1.40386,2.35864,-0.836698,-2.23353,-0.366723,2.46882
2,RRT,2.30356,1.4167,2.37247,-0.849788,-2.24663,-0.372455,2.4833
2,RRT,2.31699,1.42953,2.38629,-0.862878,-2.25972,-0.378186,2.49777
2,RRT,2.33041,1.44237,2.40012,-0.875968,-2.27281,-0.383917,2.51224
2,RRT,2.34384,1.4552,2.41395,-0.889058,-2.28591,-0.389649,2.52672
2,RRT,2.35727,1.46804,2.42778,-0.902148,-2.299,-0.39538,2.54119
2,RRT,2.37069,1.48087,2.4416,-0.915238,-2.31209,-0.401112,2.55566
2,RRT,2.38412,1.4937,2.45543,-0.928328,-2.32519,-0.406843,2.57014
2,RRT,2.39754,1.50654,2.46926,-0.941418,-2.33828,-0.412575,2.58461
2,RRT,2.41097,1.51937,2.48309,-0.954508,-2.35137,-0.418306,2.59908
2,RRT,2.42439,1.53221,2.49692,-0.967598,-2.36447,-0.424037,2.61356
2,RRT,2.43782,1.54504,2.51074,-0.980688,-2.37756,-0.429769,2.62803
2,RRT,2.45124,1.55788,2.52457,-0.993778,-2.39065,-0.4355,2.6425
2,RRT,2.46467,1.57071,2.5384,-1.00687,-2.40375,-0.441232,2.65698
2,RRT,2.4781,1.58355,2.55223,-1.01996,-2.41684,-0.446963,2.67145
2,RRT,2.49152,1.59638,2.56606,-1.03305,-2.42994,-0.452694,2.68592
2,RRT,2.50495,1.60922,2.57988,-1.04614,-2.44303,-0.458426,2.7004
2,RRT,2.51837,1.62205,2.59371,-1.05923,-2.45612,-0.464157,2.71487
2,RRT,2.5318,1.63488,2.60754,-1.07232,-2.46922,-0.469889,2.72934
2,RRT,2.54522,1.64772,2.62137,-1.08541,-2.48231,-0.47562,2.74382
2,RRT,2.55865,1.66055,2.6352,-1.0985,-2.4954,-0.481352,2.75829
2,RRT,2.57207,1.67339,2.64902,-1.11159,-2.5085,-0.487083,2.77277
2,RRT,2.5855,1.68622,2.66285,-1.12468,-2.52159,-0.492814,2.78724
2,RRT,2.59893,1.69906,2.67668,-1.13777,-2.53468,-0.498546,2.80171
2,RRT,2.61235,1.71189,2.69051,-1.15086,-2.54778,-0.504277,2.81619
2,RRT,2.62578,1.72473,2.70434,-1.16395,-2.56087,-0.510009,2.83066
2,RRT,2.6392,1.73756,2.71816,-1.17704,-2.57396,-0.51574,2.84513
2,RRT,2.65263,1.7504,2.73199,-1.19013,-2.58706,-0.521472,2.85961
2,RRT,2.66605,1.76323,2.74582,-1.20322,-2.60015,-0.527203,2.87408
2,RRT,2.67948,1.77606,2.75965,-1.21631,-2.61325,-0.532934,2.88855
2,RRT,2.6929,1.7889,2.77348,-1.2294,-2.62634,-0.538666,2.90303
2,RRT,2.70633,1.80173,2.7873,-1.24249,-2.63943,-0.544397,2.9175
2,RRT,2.71976,1.81457,2.80113,-1.25558,-2.65253,-0.550129,2.93197
2,RRT,2.73318,1.8274,2.81496,-1.26867,-2.66562,-0.55586,2.94645
2,RRT,2.74661,1.84024,2.82879,-1.28176,-2.67871,-0.561592,2.96092
2,RRT,2.76003,1.85307,2.84262,-1.29485,-2.69181,-0.567323,2.97539
2,RRT,2.77346,1.86591,2.85644,-1.30794,-2.7049,-0.573054,2.98987
2,RRT,2.78688,1.87874,2.87027,-1.32103,-2.71799,-0.578786,3.00434
2,RRT,2.79936,1.89067,2.88312,-1.33319,-2.73016,-0.584112,3.01779
2,RRT,2.80987,1.90072,2.89395,-1.34344,-2.74041,-0.5886,3.02912
2,RRT,2.81843,1.90889,2.90276,-1.35178,-2.74876,-0.592251,3.03834
2,RRT,2.82502,1.91519,2.90955,-1.35821,-2.75518,-0.595065,3.04545
2,RRT,2.82965,1.91962,2.91432,-1.36272,-2.7597,-0.597041,3.05044
2,RRT,2.83232,1.92217,2.91706,-1.36532,-2.7623,-0.598181,3.05332
2,RRT,2.83304,1.92287,2.91781,-1.36603,-2.76301,-0.598491,3.0541
2,CHOMP,-7.19876e-05,-0.785325,-7.97108e-06,1.39612,9.92841e-06,0.610942,-1.78049e-05
2,CHOMP,-0.00059523,-0.785771,0.00124203,1.3961,-0.000990626,0.61132,-0.000391011
2,CHOMP,-0.00216496,-0.787111,0.00499203,1.39604,-0.00399229,0.612454,-0.00151063
2,CHOMP,-0.00478117,-0.789343,0.011242,1.39595,-0.00899506,0.614343,-0.00337666
2,CHOMP,-0.00844386,-0.792468,0.019992,1.39581,-0.0159989,0.616988,-0.0059891
2,CHOMP,-0.013153,-0.796486,0.031242,1.39564,-0.0250039,0.620389,-0.00934795
2,CHOMP,-0.0189087,-0.801397,0.044992,1.39544,-0.03601,0.624546,-0.0134532
2,CHOMP,-0.0257107,-0.807201,0.0612416,1.39519,-0.0490169,0.629458,-0.0183048
2,CHOMP,-0.0330164,-0.813434,0.0786946,1.39493,-0.062987,0.634734,-0.0235156
2,CHOMP,-0.0403221,-0.819668,0.0961476,1.39466,-0.0769571,0.64001,-0.0287265
2,CHOMP,-0.0476278,-0.825901,0.113601,1.3944,-0.0909273,0.645286,-0.0339373
2,CHOMP,-0.0549335,-0.832135,0.131054,1.39414,-0.104897,0.650562,-0.0391482
2,CHOMP,-0.0622392,-0.838368,0.148507,1.39387,-0.118868,0.655838,-0.044359
2,CHOMP,-0.0695449,-0.844602,0.16596,1.39361,-0.132838,0.661114,-0.0495699
2,CHOMP,-0.0768507,-0.850836,0.183413,1.39335,-0.146808,0.66639,-0.0547807
2,CHOMP,-0.0841564,-0.857069,0.200866,1.39308,-0.160778,0.671666,-0.0599916
2,CHOMP,-0.0914621,-0.863303,0.218319,1.39282,-0.174748,0.676942,-0.0652024
2,CHOMP,-0.0987678,-0.869536,0.235772,1.39256,-0.188718,0.682218,-0.0704133
2,CHOMP,-0.106074,-0.87577,0.253225,1.39229,-0.202688,0.687494,-0.0756241
2,CHOMP,-0.113379,-0.882003,0.270678,1.39203,-0.216659,0.692771,-0.080835
2,CHOMP,-0.120685,-0.888237,0.288131,1.39176,-0.230629,0.698047,-0.0860458
2,CHOMP,-0.127991,-0.89447,0.305584,1.3915,-0.244599,0.703323,-0.0912566
2,CHOMP,-0.135296,-0.900704,0.323037,1.39124,-0.258569,0.708599,-0.0964675
2,CHOMP,-0.142602,-0.906937,0.34049,1.39097,-0.272539,0.713875,-0.101678
2,CHOMP,-0.149908,-0.913171,0.357943,1.39071,-0.286509,0.719151,-0.106889
2,CHOMP,-0.157214,-0.919404,0.375396,1.39045,-0.300479,0.724427,-0.1121
2,CHOMP,-0.164519,-0.925638,0.392849,1.39018,-0.314449,0.729703,-0.117311
2,CHOMP,-0.171825,-0.931872,0.410302,1.38992,-0.32842,0.734979,-0.122522
2,CHOMP,-0.179131,-0.938105,0.427755,1.38966,-0.34239,0.740255,-0.127733
2,CHOMP,-0.186436,-0.944339,0.445208,1.38939,-0.35636,0.745531,-0.132943
2,CHOMP,-0.193742,-0.950572,0.462661,1.38913,-0.37033,0.750807,-0.138154
2,CHOMP,-0.201048,-0.956806,0.480114,1.38886,-0.3843,0.756083,-0.143365
2,CHOMP,-0.208354,-0.963039,0.497567,1.3886,-0.39827,0.761359,-0.148576
2,CHOMP,-0.215659,-0.969273,0.51502,1.38834,-0.41224,0.766635,-0.153787
2,CHOMP,-0.222965,-0.975506,0.532473,1.38807,-0.426211,0.771911,-0.158998
2,CHOMP,-0.230271,-0.98174,0.549926,1.38781,-0.440181,0.777187,-0.164209
2,CHOMP,-0.237576,-0.987973,0.567379,1.38755,-0.454151,0.782464,-0.169419
2,CHOMP,-0.244882,-0.994207,0.584832,1.38728,-0.468121,0.78774,-0.17463
2,CHOMP,-0.252188,-1.00044,0.602285,1.38702,-0.482091,0.793016,-0.179841
2,CHOMP,-0.259494,-1.00667,0.619738,1.38676,-0.496061,0.798292,-0.185052
2,CHOMP,-0.266799,-1.01291,0.637191,1.38649,-0.510031,0.803568,-0.190263
2,CHOMP,-0.274105,-1.01914,0.654644,1.38623,-0.524002,0.808844,-0.195474
2,CHOMP,-0.281411,-1.02537,0.672097,1.38596,-0.537972,0.81412,-0.200684
2,CHOMP,-0.288716,-1.03161,0.68955,1.3857,-0.551942,0.819396,-0.205895
2,CHOMP,-0.296022,-1.03784,0.707003,1.38544,-0.565912,0.824672,-0.211106
2,CHOMP,-0.303328,-1.04408,0.724456,1.38517,-0.579882,0.829948,-0.216317
2,CHOMP,-0.310634,-1.05031,0.741909,1.38491,-0.593852,0.835224,-0.221528
2,CHOMP,-0.317939,-1.05654,0.759362,1.38465,-0.607822,0.8405,-0.226739
2,CHOMP,-0.325245,-1.06278,0.776815,1.38438,-0.621793,0.845776,-0.23195
2,CHOMP,-0.332551,-1.06901,0.794268,1.38412,-0.635763,0.851052,-0.23716
2,CHOMP,-0.339856,-1.07524,0.811721,1.38386,-0.649733,0.856328,-0.242371
2,CHOMP,-0.347162,-1.08148,0.829174,1.38359,-0.663703,0.861604,-0.247582
2,CHOMP,-0.354468,-1.08771,0.846627,1.38333,-0.677673,0.86688,-0.252793
2,CHOMP,-0.361774,-1.09394,0.86408,1.38306,-0.691643,0.872157,-0.258004
2,CHOMP,-0.369079,-1.10018,0.881533,1.3828,-0.705613,0.877433,-0.263215
2,CHOMP,-0.376385,-1.10641,0.898986,1.38254,-0.719583,0.882709,-0.268426
2,CHOMP,-0.383691,-1.11264,0.916439,1.38227,-0.733554,0.887985,-0.273636
2,CHOMP,-0.390996,-1.11888,0.933892,1.38201,-0.747524,0.893261,-0.278847
2,CHOMP,-0.398302,-1.12511,0.951345,1.38175,-0.761494,0.898537,-0.284058
2,CHOMP,-0.405608,-1.13134,0.968798,1.38148,-0.775464,0.903813,-0.289269
2,CHOMP,-0.412914,-1.13758,0.986251,1.38122,-0.789434,0.909089,-0.29448
2,CHOMP,-0.420219,-1.14381,1.0037,1.38096,-0.803404,0.914365,-0.299691
2,CHOMP,-0.427525,-1.15005,1.02116,1.38069,-0.817374,0.919641,-0.304901
2,CHOMP,-0.434831,-1.15628,1.03861,1.38043,-0.831345,0.924917,-0.310112
2,CHOMP,-0.442136,-1.16251,1.05606,1.38016,-0.845315,0.930193,-0.315323
2,CHOMP,-0.449442,-1.16875,1.07352,1.3799,-0.859285,0.935469,-0.320534
2,CHOMP,-0.456748,-1.17498,1.09097,1.37964,-0.873255,0.940745,-0.325745
2,CHOMP,-0.464054,-1.18121,1.10842,1.37937,-0.887225,0.946021,-0.330956
2,CHOMP,-0.471359,-1.18745,1.12587,1.37911,-0.901195,0.951297,-0.336167
2,CHOMP,-0.478665,-1.19368,1.14333,1.37885,-0.915165,0.956573,-0.341377
2,CHOMP,-0.485971,-1.19991,1.16078,1.37858,-0.929136,0.96185,-0.346588
2,CHOMP,-0.493276,-1.20615,1.17823,1.37832,-0.943106,0.967126,-0.351799
2,CHOMP,-0.500582,-1.21238,1.19569,1.37806,-0.957076,0.972402,-0.35701
2,CHOMP,-0.507888,-1.21861,1.21314,1.37779,-0.971046,0.977678,-0.362221
2,CHOMP,-0.515194,-1.22485,1.23059,1.37753,-0.985016,0.982954,-0.367432
2,CHOMP,-0.522499,-1.23108,1.24805,1.37726,-0.998986,0.98823,-0.372643
2,CHOMP,-0.529805,-1.23731,1.2655,1.377,-1.01296,0.993506,-0.377853
2,CHOMP,-0.537111,-1.24355,1.28295,1.37674,-1.02693,0.998782,-0.383064
2,CHOMP,-0.544416,-1.24978,1.3004,1.37647,-1.0409,1.00406,-0.388275
2,CHOMP,-0.551722,-1.25602,1.31786,1.37621,-1.05487,1.00933,-0.393486
2,CHOMP,-0.559028,-1.26225,1.33531,1.37595,-1.06884,1.01461,-0.398697
2,CHOMP,-0.566334,-1.26848,1.35276,1.37568,-1.08281,1.01989,-0.403908
2,CHOMP,-0.573639,-1.27472,1.37022,1.37542,-1.09678,1.02516,-0.409118
2,CHOMP,-0.580945,-1.28095,1.38767,1.37516,-1.11075,1.03044,-0.414329
2,CHOMP,-0.588251,-1.28718,1.40512,1.37489,-1.12472,1.03571,-0.41954
2,CHOMP,-0.595556,-1.29342,1.42258,1.37463,-1.13869,1.04099,-0.424751
2,CHOMP,-0.602862,-1.29965,1.44003,1.37436,-1.15266,1.04627,-0.429962
2,CHOMP,-0.610168,-1.30588,1.45748,1.3741,-1.16663,1.05154,-0.435173
2,CHOMP,-0.617474,-1.31212,1.47493,1.37384,-1.1806,1.05682,-0.440384
2,CHOMP,-0.624779,-1.31835,1.49239,1.37357,-1.19457,1.06209,-0.445594
2,CHOMP,-0.632085,-1.32458,1.50984,1.37331,-1.20854,1.06737,-0.450805
2,CHOMP,-0.639391,-1.33082,1.52729,1.37305,-1.22251,1.07265,-0.456016
2,CHOMP,-0.646696,-1.33705,1.54475,1.37278,-1.23648,1.07792,-0.461227
2,CHOMP,-0.654002,-1.34328,1.5622,1.37252,-1.25045,1.0832,-0.466438
2,CHOMP,-0.661308,-1.34952,1.57965,1.37226,-1.26442,1.08847,-0.471649
2,CHOMP,-0.668614,-1.35575,1.59711,1.37199,-1.27839,1.09375,-0.47686
2,CHOMP,-0.675919,-1.36199,1.61456,1.37173,-1.29236,1.09903,-0.48207
2,CHOMP,-0.683225,-1.36822,1.63201,1.37146,-1.30633,1.1043,-0.487281
2,CHOMP,-0.690531,-1.37445,1.64946,1.3712,-1.3203,1.10958,-0.492492
2,CHOMP,-0.697836,-1.38069,1.66692,1.37094,-1.33427,1.11486,-0.497703
2,CHOMP,-0.705142,-1.38692,1.68437,1.37067,-1.34824,1.12013,-0.502914
2,CHOMP,-0.712448,-1.39315,1.70182,1.37041,-1.36221,1.12541,-0.508125
2,CHOMP,-0.719754,-1.39939,1.71928,1.37015,-1.37618,1.13068,-0.513335
2,CHOMP,-0.727059,-1.40562,1.73673,1.36988,-1.39015,1.13596,-0.518546
2,CHOMP,-0.734365,-1.41185,1.75418,1.36962,-1.40412,1.14124,-0.523757
2,CHOMP,-0.741671,-1.41809,1.77164,1.36936,-1.41809,1.14651,-0.528968
2,CHOMP,-0.748976,-1.42432,1.78909,1.36909,-1.43206,1.15179,-0.534179
2,CHOMP,-0.756282,-1.43055,1.80654,1.36883,-1.44603,1.15706,-0.53939
2,CHOMP,-0.763588,-1.43679,1.82399,1.36856,-1.46,1.16234,-0.544601
2,CHOMP,-0.770894,-1.44302,1.84145,1.3683,-1.47397,1.16762,-0.549811
2,CHOMP,-0.778199,-1.44926,1.8589,1.36804,-1.48794,1.17289,-0.555022
2,CHOMP,-0.785496,-1.45548,1.87633,1.36777,-1.50189,1.17816,-0.560227
2,CHOMP,-0.792141,-1.46115,1.89221,1.36753,-1.5146,1.18296,-0.564966
2,CHOMP,-0.797739,-1.46593,1.90558,1.36733,-1.52531,1.187,-0.568959
2,CHOMP,-0.802291,-1.46981,1.91645,1.36717,-1.53401,1.19029,-0.572206
2,CHOMP,-0.805796,-1.4728,1.92483,1.36704,-1.54071,1.19282,-0.574706
2,CHOMP,-0.808255,-1.4749,1.9307,1.36695,-1.54541,1.1946,-0.57646
2,CHOMP,-0.809667,-1.4761,1.93408,1.3669,-1.54811,1.19562,-0.577467
2,CHOMP,-0.810045,-1.47643,1.93498,1.36689,-1.54884,1.19589,-0.577736
3,RRT,4.21235e-05,-0.785317,5.76035e-05,1.39612,9.93002e-05,0.610969,1.87568e-05
3,RRT,-0.00139413,-0.784605,0.0013076,1.39611,0.000279858,0.611612,0.000219415
3,RRT,-0.00570287,-0.782471,0.0050576,1.39606,0.000821532,0.613544,0.000821389
3,RRT,-0.0128841,-0.778913,0.0113076,1.39598,0.00172432,0.616762,0.00182468
3,RRT,-0.0229379,-0.773932,0.0200576,1.39587,0.00298823,0.621268,0.00322928
3,RRT,-0.0358641,-0.767529,0.0313076,1.39573,0.00461325,0.627062,0.00503521
3,RRT,-0.0506602,-0.760199,0.044185,1.39556,0.00647334,0.633694,0.00710237
3,RRT,-0.0654952,-0.752849,0.0570962,1.3954,0.00833832,0.640343,0.00917496
3,RRT,-0.0803302,-0.7455,0.0700075,1.39523,0.0102033,0.646992,0.0112476
3,RRT,-0.0951652,-0.738151,0.0829187,1.39507,0.0120683,0.653642,0.0133201
3,RRT,-0.11,-0.730802,0.0958299,1.3949,0.0139333,0.660291,0.0153927
3,RRT,-0.124835,-0.723452,0.108741,1.39474,0.0157982,0.66694,0.0174653
3,RRT,-0.13967,-0.716103,0.121652,1.39458,0.0176632,0.673589,0.0195379
3,RRT,-0.154505,-0.708754,0.134564,1.39441,0.0195282,0.680239,0.0216105
3,RRT,-0.16934,-0.701404,0.147475,1.39425,0.0213932,0.686888,0.0236831
3,RRT,-0.184175,-0.694055,0.160386,1.39408,0.0232582,0.693537,0.0257557
3,RRT,-0.19901,-0.686706,0.173297,1.39392,0.0251231,0.700186,0.0278283
3,RRT,-0.213845,-0.679357,0.186209,1.39376,0.0269881,0.706836,0.0299009
3,RRT,-0.22868,-0.672007,0.19912,1.39359,0.0288531,0.713485,0.0319735
3,RRT,-0.243515,-0.664658,0.212031,1.39343,0.0307181,0.720134,0.0340461
3,RRT,-0.25835,-0.657309,0.224942,1.39326,0.0325831,0.726783,0.0361187
3,RRT,-0.273185,-0.649959,0.237854,1.3931,0.034448,0.733433,0.0381913
3,RRT,-0.28802,-0.64261,0.250765,1.39293,0.036313,0.740082,0.0402639
3,RRT,-0.302855,-0.635261,0.263676,1.39277,0.038178,0.746731,0.0423365
3,RRT,-0.31769,-0.627912,0.276587,1.39261,0.040043,0.75338,0.0444091
3,RRT,-0.332525,-0.620562,0.289499,1.39244,0.041908,0.76003,0.0464817
3,RRT,-0.34736,-0.613213,0.30241,1.39228,0.0437729,0.766679,0.0485543
3,RRT,-0.362195,-0.605864,0.315321,1.39211,0.0456379,0.773328,0.0506268
3,RRT,-0.37703,-0.598515,0.328232,1.39195,0.0475029,0.779977,0.0526994
3,RRT,-0.391865,-0.591165,0.341144,1.39179,0.0493679,0.786626,0.054772
3,RRT,-0.4067,-0.583816,0.354055,1.39162,0.0512329,0.793276,0.0568446
3,RRT,-0.421535,-0.576467,0.366966,1.39146,0.0530978,0.799925,0.0589172
3,RRT,-0.43637,-0.569117,0.379877,1.39129,0.0549628,0.806574,0.0609898
3,RRT,-0.451205,-0.561768,0.392788,1.39113,0.0568278,0.813223,0.0630624
3,RRT,-0.46604,-0.554419,0.4057,1.39096,0.0586928,0.819873,0.065135
3,RRT,-0.480875,-0.54707,0.418611,1.3908,0.0605578,0.826522,0.0672076
3,RRT,-0.49571,-0.53972,0.431522,1.39064,0.0624227,0.833171,0.0692802
3,RRT,-0.510545,-0.532371,0.444433,1.39047,0.0642877,0.83982,0.0713528
3,RRT,-0.52538,-0.525022,0.457345,1.39031,0.0661527,0.84647,0.0734254
3,RRT,-0.540215,-0.517672,0.470256,1.39014,0.0680177,0.853119,0.075498
3,RRT,-0.55505,-0.510323,0.483167,1.38998,0.0698827,0.859768,0.0775706
3,RRT,-0.569885,-0.502974,0.496078,1.38982,0.0717476,0.866417,0.0796432
3,RRT,-0.58472,-0.495625,0.50899,1.38965,0.0736126,0.873067,0.0817158
3,RRT,-0.599555,-0.488275,0.521901,1.38949,0.0754776,0.879716,0.0837884
3,RRT,-0.61439,-0.480926,0.534812,1.38932,0.0773426,0.886365,0.0858609
3,RRT,-0.629225,-0.473577,0.547723,1.38916,0.0792076,0.893014,0.0879335
3,RRT,-0.64406,-0.466228,0.560635,1.38899,0.0810725,0.899664,0.0900061
3,RRT,-0.658895,-0.458878,0.573546,1.38883,0.0829375,0.906313,0.0920787
3,RRT,-0.67373,-0.451529,0.586457,1.38867,0.0848025,0.912962,0.0941513
3,RRT,-0.688565,-0.44418,0.599368,1.3885,0.0866675,0.919611,0.0962239
3,RRT,-0.7034,-0.43683,0.61228,1.38834,0.0885325,0.926261,0.0982965
3,RRT,-0.718235,-0.429481,0.625191,1.38817,0.0903975,0.93291,0.100369
3,RRT,-0.73307,-0.422132,0.638102,1.38801,0.0922624,0.939559,0.102442
3,RRT,-0.747905,-0.414783,0.651013,1.38785,0.0941274,0.946208,0.104514
3,RRT,-0.76274,-0.407433,0.663925,1.38768,0.0959924,0.952857,0.106587
3,RRT,-0.777575,-0.400084,0.676836,1.38752,0.0978574,0.959507,0.108659
3,RRT,-0.79241,-0.392735,0.689747,1.38735,0.0997224,0.966156,0.110732
3,RRT,-0.807245,-0.385385,0.702658,1.38719,0.101587,0.972805,0.112805
3,RRT,-0.82208,-0.378036,0.715569,1.38702,0.103452,0.979454,0.114877
3,RRT,-0.836915,-0.370687,0.728481,1.38686,0.105317,0.986104,0.11695
3,RRT,-0.85175,-0.363338,0.741392,1.3867,0.107182,0.992753,0.119022
3,RRT,-0.866585,-0.355988,0.754303,1.38653,0.109047,0.999402,0.121095
3,RRT,-0.88142,-0.348639,0.767214,1.38637,0.110912,1.00605,0.123168
3,RRT,-0.896255,-0.34129,0.780126,1.3862,0.112777,1.0127,0.12524
3,RRT,-0.91109,-0.333941,0.793037,1.38604,0.114642,1.01935,0.127313
3,RRT,-0.925925,-0.326591,0.805948,1.38588,0.116507,1.026,0.129385
3,RRT,-0.94076,-0.319242,0.818859,1.38571,0.118372,1.03265,0.131458
3,RRT,-0.955595,-0.311893,0.831771,1.38555,0.120237,1.0393,0.133531
3,RRT,-0.97043,-0.304543,0.844682,1.38538,0.122102,1.04595,0.135603
3,RRT,-0.985265,-0.297194,0.857593,1.38522,0.123967,1.0526,0.137676
3,RRT,-1.0001,-0.289845,0.870504,1.38505,0.125832,1.05925,0.139748
3,RRT,-1.01494,-0.282496,0.883416,1.38489,0.127697,1.06589,0.141821
3,RRT,-1.02977,-0.275146,0.896327,1.38473,0.129562,1.07254,0.143894
3,RRT,-1.04461,-0.267797,0.909238,1.38456,0.131427,1.07919,0.145966
3,RRT,-1.05944,-0.260448,0.922149,1.3844,0.133292,1.08584,0.148039
3,RRT,-1.07428,-0.253098,0.935061,1.38423,0.135157,1.09249,0.150111
3,RRT,-1.08911,-0.245749,0.947972,1.38407,0.137022,1.09914,0.152184
3,RRT,-1.10395,-0.2384,0.960883,1.38391,0.138887,1.10579,0.154257
3,RRT,-1.11878,-0.231051,0.973794,1.38374,0.140752,1.11244,0.156329
3,RRT,-1.13362,-0.223701,0.986706,1.38358,0.142617,1.11909,0.158402
3,RRT,-1.14845,-0.216352,0.999617,1.38341,0.144482,1.12574,0.160474
3,RRT,-1.16329,-0.209003,1.01253,1.38325,0.146347,1.13239,0.162547
3,RRT,-1.17812,-0.201654,1.02544,1.38308,0.148212,1.13904,0.16462
3,RRT,-1.19296,-0.194304,1.03835,1.38292,0.150077,1.14569,0.166692
3,RRT,-1.20779,-0.186955,1.05126,1.38276,0.151942,1.15233,0.168765
3,RRT,-1.22263,-0.179606,1.06417,1.38259,0.153807,1.15898,0.170837
3,RRT,-1.23746,-0.172256,1.07708,1.38243,0.155672,1.16563,0.17291
3,RRT,-1.2523,-0.164907,1.09,1.38226,0.157537,1.17228,0.174983
3,RRT,-1.26713,-0.157558,1.10291,1.3821,0.159402,1.17893,0.177055
3,RRT,-1.28197,-0.150209,1.11582,1.38194,0.161267,1.18558,0.179128
3,RRT,-1.2968,-0.142859,1.12873,1.38177,0.163132,1.19223,0.1812
3,RRT,-1.31164,-0.13551,1.14164,1.38161,0.164997,1.19888,0.183273
3,RRT,-1.32647,-0.128161,1.15455,1.38144,0.166862,1.20553,0.185345
3,RRT,-1.34131,-0.120811,1.16746,1.38128,0.168727,1.21218,0.187418
3,RRT,-1.35614,-0.113462,1.18037,1.38111,0.170592,1.21883,0.189491
3,RRT,-1.37098,-0.106113,1.19329,1.38095,0.172457,1.22548,0.191563
3,RRT,-1.38581,-0.0987636,1.2062,1.38079,0.174322,1.23213,0.193636
3,RRT,-1.40065,-0.0914144,1.21911,1.38062,0.176187,1.23877,0.195708
3,RRT,-1.41548,-0.0840651,1.23202,1.38046,0.178052,1.24542,0.197781
3,RRT,-1.43032,-0.0767158,1.24493,1.38029,0.179917,1.25207,0.199854
3,RRT,-1.44515,-0.0693665,1.25784,1.38013,0.181781,1.25872,0.201926
3,RRT,-1.45999,-0.0620172,1.27075,1.37997,0.183646,1.26537,0.203999
3,RRT,-1.47482,-0.054668,1.28366,1.3798,0.185511,1.27202,0.206071
3,RRT,-1.48966,-0.0473187,1.29658,1.37964,0.187376,1.27867,0.208144
3,RRT,-1.50449,-0.0399694,1.30949,1.37947,0.189241,1.28532,0.210217
3,RRT,-1.51933,-0.0326201,1.3224,1.37931,0.191106,1.29197,0.212289
3,RRT,-1.53416,-0.0252709,1.33531,1.37914,0.192971,1.29862,0.214362
3,RRT,-1.549,-0.0179216,1.34822,1.37898,0.194836,1.30527,0.216434
3,RRT,-1.56383,-0.0105723,1.36113,1.37882,0.196701,1.31192,0.218507
3,RRT,-1.57867,-0.00322302,1.37404,1.37865,0.198566,1.31857,0.22058
3,RRT,-1.5935,0.00412625,1.38695,1.37849,0.200431,1.32521,0.222652
3,RRT,-1.60834,0.0114755,1.39987,1.37832,0.202296,1.33186,0.224725
3,RRT,-1.62317,0.0188248,1.41278,1.37816,0.204161,1.33851,0.226797
3,RRT,-1.63801,0.0261741,1.42569,1.378,0.206026,1.34516,0.22887
3,RRT,-1.65284,0.0335234,1.4386,1.37783,0.207891,1.35181,0.230943
3,RRT,-1.66768,0.0408726,1.45151,1.37767,0.209756,1.35846,0.233015
3,RRT,-1.68251,0.0482219,1.46442,1.3775,0.211621,1.36511,0.235088
3,RRT,-1.69735,0.0555712,1.47733,1.37734,0.213486,1.37176,0.23716
3,RRT,-1.71218,0.0629205,1.49024,1.37717,0.215351,1.37841,0.239233
3,RRT,-1.72702,0.0702698,1.50316,1.37701,0.217216,1.38506,0.241306
3,RRT,-1.74185,0.077619,1.51607,1.37685,0.219081,1.39171,0.243378
3,RRT,-1.75669,0.0849683,1.52898,1.37668,0.220946,1.39836,0.245451
3,RRT,-1.77152,0.0923176,1.54189,1.37652,0.222811,1.40501,0.247523
3,RRT,-1.78636,0.0996669,1.5548,1.37635,0.224676,1.41165,0.249596
3,RRT,-1.80119,0.107016,1.56771,1.37619,0.226541,1.4183,0.251668
3,RRT,-1.81603,0.114365,1.58062,1.37603,0.228406,1.42495,0.253741
3,RRT,-1.83086,0.121715,1.59353,1.37586,0.230271,1.4316,0.255814
3,RRT,-1.8457,0.129064,1.60645,1.3757,0.232136,1.43825,0.257886
3,RRT,-1.86053,0.136413,1.61936,1.37553,0.234001,1.4449,0.259959
3,RRT,-1.87537,0.143763,1.63227,1.37537,0.235866,1.45155,0.262031
3,RRT,-1.8902,0.151112,1.64518,1.3752,0.237731,1.4582,0.264104
3,RRT,-1.90504,0.158461,1.65809,1.37504,0.239596,1.46485,0.266177
3,RRT,-1.91987,0.16581,1.671,1.37488,0.241461,1.4715,0.268249
3,RRT,-1.93471,0.17316,1.68391,1.37471,0.243326,1.47815,0.270322
3,RRT,-1.94954,0.180509,1.69682,1.37455,0.245191,1.4848,0.272394
3,RRT,-1.96438,0.187858,1.70973,1.37438,0.247056,1.49145,0.274467
3,RRT,-1.97921,0.195207,1.72265,1.37422,0.248921,1.4981,0.27654
3,RRT,-1.99405,0.202557,1.73556,1.37406,0.250786,1.50474,0.278612
3,RRT,-2.00888,0.209906,1.74847,1.37389,0.252651,1.51139,0.280685
3,RRT,-2.02372,0.217255,1.76138,1.37373,0.254516,1.51804,0.282757
3,RRT,-2.03855,0.224605,1.77429,1.37356,0.256381,1.52469,0.28483
3,RRT,-2.05339,0.231954,1.7872,1.3734,0.258246,1.53134,0.286903
3,RRT,-2.06822,0.239303,1.80011,1.37323,0.260111,1.53799,0.288975
3,RRT,-2.08306,0.246652,1.81302,1.37307,0.261976,1.54464,0.291048
3,RRT,-2.09789,0.254002,1.82594,1.37291,0.263841,1.55129,0.29312
3,RRT,-2.11273,0.261351,1.83885,1.37274,0.265706,1.55794,0.295193
3,RRT,-2.12756,0.2687,1.85176,1.37258,0.267571,1.56459,0.297266
3,RRT,-2.1424,0.27605,1.86467,1.37241,0.269436,1.57124,0.299338
3,RRT,-2.15723,0.283399,1.87758,1.37225,0.271301,1.57789,0.301411
3,RRT,-2.17207,0.290748,1.89049,1.37209,0.273166,1.58454,0.303483
3,RRT,-2.1869,0.298097,1.9034,1.37192,0.275031,1.59118,0.305556
3,RRT,-2.20174,0.305447,1.91631,1.37176,0.276895,1.59783,0.307629
3,RRT,-2.21657,0.312796,1.92923,1.37159,0.27876,1.60448,0.309701
3,RRT,-2.23141,0.320145,1.94214,1.37143,0.280625,1.61113,0.311774
3,RRT,-2.24624,0.327494,1.95505,1.37126,0.28249,1.61778,0.313846
3,RRT,-2.26108,0.334844,1.96796,1.3711,0.284355,1.62443,0.315919
3,RRT,-2.27591,0.342193,1.98087,1.37094,0.28622,1.63108,0.317992
3,RRT,-2.29075,0.349542,1.99378,1.37077,0.288085,1.63773,0.320064
3,RRT,-2.30558,0.356892,2.00669,1.37061,0.28995,1.64438,0.322137
3,RRT,-2.32042,0.364241,2.0196,1.37044,0.291815,1.65103,0.324209
3,RRT,-2.33525,0.37159,2.03252,1.37028,0.29368,1.65768,0.326282
3,RRT,-2.35009,0.378939,2.04543,1.37012,0.295545,1.66433,0.328354
3,RRT,-2.36492,0.386289,2.05834,1.36995,0.29741,1.67098,0.330427
3,RRT,-2.37976,0.393638,2.07125,1.36979,0.299275,1.67762,0.3325
3,RRT,-2.39459,0.400987,2.08416,1.36962,0.30114,1.68427,0.334572
3,RRT,-2.40943,0.408337,2.09707,1.36946,0.303005,1.69092,0.336645
3,RRT,-2.42426,0.415686,2.10998,1.36929,0.30487,1.69757,0.338717
3,RRT,-2.4391,0.423035,2.12289,1.36913,0.306735,1.70422,0.34079
3,RRT,-2.45393,0.430384,2.13581,1.36897,0.3086,1.71087,0.342863
3,RRT,-2.46877,0.437734,2.14872,1.3688,0.310465,1.71752,0.344935
3,RRT,-2.4836,0.445083,2.16163,1.36864,0.31233,1.72417,0.347008
3,RRT,-2.49844,0.452432,2.17454,1.36847,0.314195,1.73082,0.34908
3,RRT,-2.51327,0.459781,2.18745,1.36831,0.31606,1.73747,0.351153
3,RRT,-2.52811,0.467131,2.20036,1.36815,0.317925,1.74412,0.353226
3,RRT,-2.54294,0.47448,2.21327,1.36798,0.31979,1.75077,0.355298
3,RRT,-2.55778,0.481829,2.22618,1.36782,0.321655,1.75742,0.357371
3,RRT,-2.57261,0.489179,2.2391,1.36765,0.32352,1.76406,0.359443
3,RRT,-2.58745,0.496528,2.25201,1.36749,0.325385,1.77071,0.361516
3,RRT,-2.60228,0.503877,2.26492,1.36732,0.32725,1.77736,0.363589
3,RRT,-2.61712,0.511226,2.27783,1.36716,0.329115,1.78401,0.365661
3,RRT,-2.63195,0.518576,2.29074,1.367,0.33098,1.79066,0.367734
3,RRT,-2.64679,0.525925,2.30365,1.36683,0.332845,1.79731,0.369806
3,RRT,-2.66162,0.533274,2.31656,1.36667,0.33471,1.80396,0.371879
3,RRT,-2.67646,0.540624,2.32947,1.3665,0.336575,1.81061,0.373952
3,RRT,-2.69129,0.547973,2.34239,1.36634,0.33844,1.81726,0.376024
3,RRT,-2.70613,0.555322,2.3553,1.36618,0.340305,1.82391,0.378097
3,RRT,-2.72096,0.562671,2.36821,1.36601,0.34217,1.83056,0.380169
3,RRT,-2.7358,0.570021,2.38112,1.36585,0.344035,1.83721,0.382242
3,RRT,-2.75063,0.57737,2.39403,1.36568,0.3459,1.84386,0.384315
3,RRT,-2.76547,0.584719,2.40694,1.36552,0.347765,1.8505,0.386387
3,RRT,-2.7803,0.592068,2.41985,1.36535,0.34963,1.85715,0.38846
3,RRT,-2.79514,0.599418,2.43276,1.36519,0.351495,1.8638,0.390532
3,RRT,-2.80997,0.606767,2.44568,1.36503,0.35336,1.87045,0.392605
3,RRT,-2.82481,0.614116,2.45859,1.36486,0.355225,1.8771,0.394677
3,RRT,-2.83964,0.621466,2.4715,1.3647,0.35709,1.88375,0.39675
3,RRT,-2.85448,0.628815,2.48441,1.36453,0.358955,1.8904,0.398823
3,RRT,-2.86931,0.636164,2.49732,1.36437,0.36082,1.89705,0.400895
3,RRT,-2.88415,0.643513,2.51023,1.36421,0.362685,1.9037,0.402968
3,RRT,-2.89898,0.650863,2.52314,1.36404,0.36455,1.91035,0.40504
3,RRT,-2.9138,0.658206,2.53604,1.36388,0.366413,1.91699,0.407111
3,RRT,-2.92694,0.664712,2.54747,1.36373,0.368064,1.92288,0.408946
3,RRT,-2.9372,0.669795,2.5564,1.36362,0.369354,1.92748,0.41038
3,RRT,-2.94458,0.673454,2.56283,1.36354,0.370283,1.93079,0.411412
3,RRT,-2.9491,0.675691,2.56676,1.36349,0.37085,1.93281,0.412042
3,RRT,-2.95074,0.676505,2.56819,1.36347,0.371057,1.93355,0.412272
3,RRT,-2.95075,0.676509,2.5682,1.36347,0.371058,1.93355,0.412273
3,CHOMP,2.54596e-05,-0.785356,3.71111e-05,1.39615,2.23511e-06,0.610808,3.77738e-05
3,CHOMP,-0.001032,-0.784419,0.000231387,1.39614,0.000817101,0.610848,0.000287574
3,CHOMP,-0.00420438,-0.781606,0.000814214,1.3961,0.0032617,0.610967,0.00103698
3,CHOMP,-0.00949167,-0.776919,0.00178559,1.39605,0.00733603,0.611165,0.00228598
3,CHOMP,-0.0168939,-0.770356,0.00314552,1.39597,0.0130401,0.611442,0.00403458
3,CHOMP,-0.026411,-0.761919,0.004894,1.39587,0.0203739,0.611798,0.00628279
3,CHOMP,-0.0380431,-0.751606,0.00703103,1.39574,0.0293374,0.612234,0.00903059
3,CHOMP,-0.05179,-0.739419,0.00955662,1.39559,0.0399307,0.612748,0.012278
3,CHOMP,-0.0666248,-0.726267,0.012282,1.39543,0.0513621,0.613304,0.0157824
3,CHOMP,-0.0814598,-0.713115,0.0150075,1.39527,0.0627938,0.613859,0.0192868
3,CHOMP,-0.0962948,-0.699963,0.017733,1.39511,0.0742255,0.614415,0.0227912
3,CHOMP,-0.11113,-0.686811,0.0204585,1.39495,0.0856572,0.61497,0.0262956
3,CHOMP,-0.125965,-0.673659,0.0231839,1.39479,0.0970888,0.615525,0.0298001
3,CHOMP,-0.1408,-0.660506,0.0259094,1.39463,0.108521,0.616081,0.0333045
3,CHOMP,-0.155635,-0.647354,0.0286349,1.39447,0.119952,0.616636,0.0368089
3,CHOMP,-0.17047,-0.634202,0.0313604,1.39431,0.131384,0.617192,0.0403134
3,CHOMP,-0.185305,-0.62105,0.0340858,1.39415,0.142816,0.617747,0.0438178
3,CHOMP,-0.20014,-0.607898,0.0368113,1.39399,0.154247,0.618303,0.0473222
3,CHOMP,-0.214975,-0.594746,0.0395368,1.39383,0.165679,0.618858,0.0508266
3,CHOMP,-0.22981,-0.581594,0.0422623,1.39367,0.177111,0.619413,0.0543311
3,CHOMP,-0.244645,-0.568442,0.0449877,1.39351,0.188542,0.619969,0.0578355
3,CHOMP,-0.25948,-0.55529,0.0477132,1.39335,0.199974,0.620524,0.0613399
3,CHOMP,-0.274315,-0.542138,0.0504387,1.39319,0.211406,0.62108,0.0648444
